P3
110 73
255
194 204 216 
196 206 218 
198 209 220 
200 207 219 
200 207 218
201 208 220 
202 208 219 
202 209 219 
204 211 221 
205 211 220
208 211 220 
209 213 221 
211 213 221 
215 212 221 
215 213 221
216 213 222 
217 215 221 
217 215 221 
217 215 221 
219 217 222
220 218 223 
220 218 223 
220 218 223 
220 218 223 
220 218 223
220 218 224 
220 217 224 
220 218 224 
220 218 224 
220 219 225
220 218 224 
220 218 224 
219 219 226 
218 218 226 
217 216 224
215 217 226 
214 218 226 
215 218 226 
214 218 228 
214 217 229
213 216 227 
211 216 227 
209 216 228 
208 215 227 
208 215 226
208 215 226 
208 215 226 
208 215 226 
206 216 227 
206 215 227
205 214 226 
205 214 228 
205 214 229 
205 214 229 
204 215 230
204 216 230 
204 216 230 
204 216 230 
203 217 230 
204 218 231
205 218 231 
206 218 230 
206 218 230 
206 218 230 
206 220 231
206 220 231 
206 220 231 
207 221 232 
207 221 232 
207 221 232
207 221 232 
207 221 232 
208 222 233 
208 222 233 
208 222 233
208 222 233 
207 222 233 
204 220 233 
203 219 232 
203 219 232
202 218 231 
201 217 230 
201 217 230 
198 216 230 
196 214 230
194 212 227 
193 212 227 
193 212 227 
193 212 227 
194 212 227
194 213 228 
193 212 227 
192 211 226 
191 210 225 
191 209 225
190 209 224 
185 207 222 
185 206 222 
183 204 219 
181 204 220
182 204 221 
180 202 218 
176 200 219 
173 199 219 
172 196 216
170 195 216 
168 194 215 
165 191 212 
165 190 211 
164 190 209
196 205 215 
197 207 217 
199 208 219 
202 209 219 
203 210 220
204 210 221 
204 210 220 
205 209 219 
205 211 220 
207 210 219
210 211 218 
212 213 220 
213 213 221 
216 213 220 
217 214 221
218 215 222 
220 217 222 
220 217 222 
219 217 222 
222 218 223
224 219 224 
224 220 224 
224 220 224 
224 219 224 
224 219 224
224 220 224 
224 220 226 
224 220 225 
223 220 225 
222 220 225
222 220 225 
222 220 225 
221 220 226 
220 219 226 
220 219 225
219 219 226 
218 219 227 
218 219 226 
217 219 228 
216 219 229
216 218 228 
214 218 228 
211 218 229 
211 217 228 
210 217 228
211 217 228 
210 217 227 
210 216 227 
209 216 227 
208 216 227
207 215 226 
206 215 227 
206 215 228 
206 215 228 
206 215 228
205 216 229 
206 216 229 
205 216 229 
204 216 229 
205 217 229
205 217 230 
206 218 230 
206 218 230 
206 218 230 
205 219 230
205 219 230 
206 220 231 
206 220 231 
207 221 232 
207 221 232
207 221 232 
207 221 232 
208 222 233 
208 222 233 
208 222 233
208 222 233 
207 221 233 
204 220 233 
204 220 233 
204 220 233
203 219 232 
203 219 232 
202 218 231 
200 217 232 
199 217 231
199 216 231 
199 216 231 
198 216 231 
198 216 231 
198 215 230
197 214 229 
196 214 229 
196 214 228 
195 213 227 
195 212 227
194 212 227 
191 210 225 
190 210 224 
189 208 223 
186 207 222
184 206 221 
183 205 219 
180 203 220 
177 201 220 
176 199 218
173 197 216 
171 195 215 
169 194 214 
169 194 213 
167 193 210
197 206 216 
199 208 217 
200 209 218 
204 209 219 
207 211 221
207 212 222 
208 212 221 
209 212 220 
209 212 220 
211 212 219
213 213 218 
213 213 219 
216 215 221 
220 215 221 
221 217 223
223 218 224 
223 218 222 
223 219 223 
224 219 223 
225 220 223
226 220 224 
227 221 225 
227 221 225 
227 221 225 
227 221 225
227 221 225 
227 221 225 
226 220 224 
226 220 224 
225 220 224
225 220 224 
225 220 224 
222 220 225 
222 220 225 
222 220 226
221 220 226 
221 220 226 
221 221 226 
220 220 227 
219 219 228
218 218 227 
216 218 228 
214 218 229 
214 219 229 
214 219 229
214 218 229 
213 218 228 
213 217 228 
211 218 228 
211 218 228
210 217 227 
208 216 228 
208 216 228 
208 216 228 
208 216 228
208 216 228 
208 216 228 
207 217 228 
207 217 228 
207 217 228
206 217 228 
205 217 229 
205 217 229 
205 217 229 
204 218 229
204 218 229 
205 219 230 
205 219 230 
205 219 230 
206 220 231
206 220 231 
206 220 231 
207 221 232 
208 222 233 
208 222 233
207 221 232 
206 221 232 
204 220 233 
204 220 233 
204 220 233
203 219 232 
203 219 232 
203 219 232 
201 218 231 
201 217 231
201 217 231 
201 217 231 
201 217 231 
200 216 230 
200 216 229
199 215 229 
199 215 229 
199 215 229 
198 214 228 
197 214 227
197 213 227 
195 213 227 
194 212 226 
193 211 225 
192 211 225
189 208 223 
188 207 221 
182 203 219 
179 201 218 
177 199 216
175 197 215 
174 197 215 
173 196 215 
173 196 214 
174 197 214
201 206 215 
203 208 216 
205 209 218 
207 209 216 
210 211 217
211 213 219 
213 213 218 
214 213 218 
215 214 219 
216 214 219
217 213 218 
217 213 218 
218 213 218 
222 214 218 
224 216 219
225 217 220 
227 218 220 
229 219 221 
229 219 221 
230 219 220
230 220 220 
231 220 220 
232 221 221 
232 221 222 
232 221 221
232 221 222 
231 221 224 
231 220 223 
230 220 222 
230 221 222
229 220 222 
228 219 221 
227 219 222 
227 219 222 
227 219 222
226 219 224 
225 220 224 
221 219 223 
220 218 223 
220 217 224
219 217 223 
219 217 224 
218 218 224 
219 218 225 
218 218 225
217 218 226 
217 218 226 
217 218 226 
215 219 228 
215 219 228
215 219 228 
216 220 229 
215 220 229 
215 219 228 
213 219 229
212 219 229 
212 219 229 
211 219 229 
210 219 228 
209 218 227
209 217 227 
208 216 228 
209 216 228 
209 217 228 
207 218 230
206 217 229 
206 217 228 
204 216 228 
204 217 228 
205 217 229
205 217 229 
205 217 229 
205 217 229 
206 218 230 
206 219 231
207 219 231 
207 220 231 
206 220 232 
205 220 231 
205 219 230
206 219 231 
205 218 230 
205 217 230 
204 218 229 
203 218 229
203 217 228 
203 216 229 
202 215 229 
202 214 228 
202 215 227
201 215 224 
202 215 225 
201 215 225 
201 215 225 
200 214 224
199 213 223 
198 212 222 
199 212 223 
198 212 222 
195 211 222
192 210 221 
191 209 219 
188 205 217 
186 203 217 
184 201 215
183 201 215 
182 201 215 
181 200 213 
181 200 213 
182 201 214
204 205 212 
206 207 214 
207 209 216 
209 208 214 
211 210 214
213 212 217 
215 212 217 
216 212 216 
217 213 218 
218 213 217
219 213 216 
219 213 216 
220 213 215 
223 213 214 
225 215 216
226 216 217 
229 217 218 
231 219 220 
232 220 221 
232 219 219
233 220 218 
234 221 220 
235 221 220 
235 222 220 
235 222 220
234 222 221 
234 222 222 
233 221 221 
233 221 221 
232 221 221
232 221 221 
231 221 221 
230 220 221 
230 219 220 
229 219 220
230 219 223 
228 219 223 
223 219 221 
221 218 222 
221 217 223
220 216 222 
220 217 223 
221 218 223 
220 218 223 
220 218 223
219 218 225 
219 218 225 
219 218 225 
218 219 226 
218 219 226
218 219 226 
218 219 227 
218 219 227 
218 219 226 
216 220 229
215 221 230 
215 220 230 
214 220 229 
213 220 229 
212 219 228
212 219 228 
211 218 229 
211 217 228 
210 217 227 
209 218 229
208 217 227 
206 215 226 
206 216 226 
205 216 226 
205 216 226
206 217 228 
206 217 229 
206 217 229 
206 217 229 
206 218 230
207 218 230 
207 219 231 
206 218 230 
206 218 230 
206 218 230
206 218 229 
205 217 229 
205 217 228 
205 217 229 
205 217 229
204 216 228 
204 216 228 
203 214 227 
202 213 227 
202 214 226
202 215 224 
202 215 224 
202 214 223 
201 214 223 
200 213 222
200 213 221 
199 212 220 
199 212 221 
199 212 221 
196 210 220
194 209 219 
192 208 218 
191 206 217 
190 205 217 
190 205 217
190 205 216 
190 205 216 
189 204 215 
189 203 213 
189 202 209
204 204 210 
206 205 212 
206 206 212 
208 207 211 
209 208 211
212 210 214 
215 211 215 
216 210 214 
218 212 216 
219 213 216
221 212 214 
219 211 214 
220 211 213 
223 211 211 
224 213 213
226 215 215 
230 217 216 
232 219 218 
234 221 220 
235 221 219
235 221 218 
237 223 220 
238 224 222 
238 224 222 
237 223 220
237 223 221 
236 223 223 
236 222 222 
235 222 221 
234 222 222
234 222 221 
233 221 220 
232 220 220 
232 220 221 
232 220 221
233 220 223 
231 220 223 
227 219 220 
223 218 221 
223 218 223
223 218 222 
223 218 222 
222 218 223 
222 217 222 
221 217 222
219 218 224 
220 218 224 
221 219 225 
219 219 225 
219 219 226
219 219 226 
219 219 225 
219 219 225 
220 219 225 
218 220 228
217 221 229 
217 220 228 
216 220 228 
214 220 227 
215 220 227
214 219 228 
213 218 229 
214 218 229 
213 218 229 
210 219 228
209 218 227 
207 216 226 
208 217 226 
207 217 226 
206 216 225
207 216 227 
208 217 229 
208 217 229 
207 217 229 
205 217 229
206 218 230 
206 218 230 
208 218 230 
208 218 230 
208 218 230
204 216 228 
204 216 228 
204 216 228 
206 216 228 
206 216 228
205 215 228 
204 216 227 
201 214 225 
200 212 223 
200 213 223
200 213 222 
199 213 222 
199 212 221 
201 211 221 
201 211 221
201 211 221 
198 211 220 
198 211 220 
196 209 218 
193 207 218
193 206 218 
192 205 217 
192 205 216 
191 205 215 
190 204 214
190 203 214 
190 203 214 
191 204 215 
191 203 213 
189 201 208
203 202 206 
204 203 207 
205 203 208 
206 204 207 
208 205 207
211 205 209 
213 205 209 
215 207 209 
217 209 209 
218 210 209
221 211 210 
222 211 209 
224 210 207 
225 210 210 
226 211 209
229 214 209 
232 216 211 
234 218 213 
236 219 215 
239 222 217
240 222 217 
239 222 217 
241 225 219 
242 226 220 
241 225 219
241 224 220 
240 224 222 
240 223 222 
239 223 222 
236 224 221
236 223 221 
235 223 220 
235 221 219 
235 221 220 
235 222 220
234 221 221 
231 220 220 
230 219 219 
228 218 220 
228 218 221
228 219 221 
227 218 221 
225 218 221 
224 217 220 
223 217 220
222 218 221 
223 218 221 
223 218 222 
222 218 223 
222 218 223
222 218 223 
221 219 224 
220 219 224 
221 219 224 
220 220 226
220 220 227 
220 219 226 
218 219 225 
217 219 224 
217 220 225
217 220 226 
216 219 227 
216 219 227 
215 219 227 
213 220 227
212 219 226 
211 218 225 
210 217 227 
209 217 227 
209 217 226
209 217 227 
209 217 228 
209 216 227 
207 216 226 
206 217 225
206 217 225 
206 217 226 
207 217 227 
207 218 228 
206 217 227
204 215 225 
204 215 225 
203 214 224 
203 214 224 
203 213 223
202 212 222 
202 212 221 
201 211 220 
201 210 220 
200 210 220
199 210 219 
199 210 220 
199 210 220 
200 210 218 
200 210 218
200 209 218 
198 209 218 
197 208 218 
196 207 216 
195 206 216
195 206 216 
195 206 216 
194 205 215 
194 205 214 
193 205 212
195 205 211 
197 204 212 
197 204 211 
195 203 211 
190 201 209
205 200 201 
205 201 201 
206 201 202 
207 202 202 
208 202 203
211 200 203 
212 200 203 
214 203 203 
215 205 201 
217 207 202
220 208 204 
226 210 203 
228 209 203 
229 208 206 
228 208 202
229 210 202 
232 213 204 
235 216 208 
238 218 210 
241 222 213
241 222 214 
241 222 214 
243 224 217 
244 225 219 
244 225 219
244 225 219 
243 224 220 
243 224 220 
242 224 220 
239 225 219
238 224 218 
238 223 217 
238 224 219 
238 224 220 
239 224 220
234 222 220 
232 220 219 
232 219 218 
232 220 220 
232 220 221
230 218 219 
229 218 219 
228 218 219 
228 218 219 
227 218 219
225 217 218 
225 218 218 
225 218 219 
224 218 221 
224 218 221
224 218 221 
223 219 223 
222 219 223 
222 219 223 
222 219 224
222 220 225 
221 219 224 
220 219 224 
219 218 223 
220 219 224
220 220 225 
218 220 226 
218 220 226 
217 219 225 
217 220 225
216 219 224 
214 217 222 
213 216 224 
212 216 224 
212 216 224
212 216 224 
212 216 224 
212 215 223 
210 216 223 
208 216 221
208 216 221 
208 216 222 
207 215 224 
207 215 223 
204 212 221
204 212 220 
203 211 220 
202 210 219 
203 211 220 
203 211 220
202 210 219 
203 210 219 
203 210 219 
202 209 218 
202 209 218
201 210 219 
200 209 217 
199 208 217 
196 208 218 
195 207 216
194 206 215 
197 206 214 
198 207 215 
198 207 215 
198 206 213
198 206 213 
199 207 214 
199 207 215 
199 207 215 
200 208 212
200 207 210 
201 205 209 
201 204 208 
200 203 207 
199 201 204
208 199 197 
208 199 197 
208 199 197 
209 200 198 
211 200 198
213 199 198 
215 199 199 
216 201 198 
217 203 196 
220 205 198
224 207 201 
229 209 200 
232 210 201 
234 209 204 
232 208 200
231 208 197 
234 210 198 
236 212 200 
240 215 203 
242 222 209
244 225 212 
244 224 210 
244 224 214 
246 226 218 
244 223 216
244 224 216 
244 224 215 
244 224 216 
244 224 215 
240 222 212
240 222 213 
240 222 213 
240 224 218 
241 225 220 
240 224 219
235 220 217 
233 219 218 
235 220 218 
234 220 219 
233 220 220
233 220 220 
233 220 221 
232 221 222 
232 220 221 
231 221 221
231 222 222 
231 222 221 
230 221 221 
230 222 224 
229 221 223
227 219 221 
225 219 222 
224 219 223 
224 219 223 
223 219 223
222 218 223 
222 218 223 
222 219 223 
221 220 224 
222 220 224
221 220 224 
220 221 226 
220 221 226 
220 220 225 
219 219 225
219 219 225 
219 219 225 
218 218 223 
217 217 223 
215 215 221
215 215 221 
215 215 221 
216 215 221 
214 215 220 
212 215 221
211 214 220 
210 214 220 
210 213 222 
208 211 220 
207 210 219
208 211 220 
208 212 220 
209 212 221 
208 211 220 
207 211 220
206 209 218 
203 208 216 
202 207 215 
200 206 214 
199 206 214
198 206 214 
198 206 215 
198 207 214 
198 207 214 
198 207 214
198 207 214 
198 206 213 
199 207 214 
199 207 215 
202 208 212
204 208 211 
203 208 211 
205 208 213 
205 209 213 
205 210 210
205 209 208 
205 208 208 
204 208 207 
204 206 206 
203 203 204
216 203 198 
216 203 198 
216 203 198 
215 201 196 
216 201 195
220 202 197 
220 202 196 
220 202 194 
219 201 191 
221 202 192
226 205 194 
230 207 193 
234 209 195 
236 211 202 
237 211 200
238 212 200 
239 215 200 
241 220 208 
243 222 210 
242 223 210
249 230 217 
247 229 215 
246 226 218 
249 229 223 
248 232 225
247 231 222 
244 226 217 
246 227 218 
245 228 219 
243 225 216
242 220 210 
243 220 209 
242 223 214 
240 221 213 
236 218 209
233 216 210 
235 217 211 
235 218 213 
234 219 216 
234 220 217
235 221 218 
235 222 219 
234 222 221 
233 221 220 
233 221 220
233 222 221 
233 222 221 
232 221 220 
230 220 221 
230 220 221
229 219 220 
228 220 222 
226 219 222 
226 219 222 
225 219 221
224 218 220 
224 218 220 
224 219 222 
223 221 223 
223 220 222
223 220 222 
223 220 224 
223 221 224 
225 223 226 
225 221 224
225 221 224 
225 222 224 
226 222 224 
225 221 222 
229 225 225
232 225 223 
230 224 222 
219 217 217 
213 213 216 
216 216 221
216 216 221 
217 217 222 
216 216 222 
214 215 221 
212 215 220
211 213 218 
211 212 217 
210 211 216 
210 211 216 
210 210 216
210 210 215 
207 209 214 
206 208 213 
204 206 211 
203 206 211
204 207 213 
203 206 211 
202 206 210 
203 206 208 
203 206 208
203 206 208 
202 206 210 
203 206 211 
204 207 211 
206 207 209
206 207 208 
206 207 209 
207 207 209 
207 207 208 
207 207 205
206 207 204 
205 206 204 
205 205 203 
205 204 203 
201 203 204
221 205 198 
222 207 199 
224 209 201 
226 209 200 
227 209 199
226 209 200 
226 208 196 
229 211 199 
236 218 206 
238 219 208
240 219 206 
240 220 205 
241 221 206 
239 218 202 
243 219 204
248 223 209 
247 235 223 
251 246 238 
247 243 235 
249 242 237
250 243 238 
248 240 235 
251 244 243 
252 243 243 
252 243 239
251 241 234 
250 237 231 
248 235 229 
251 241 233 
251 238 229
247 228 218 
248 224 213 
249 227 214 
238 215 199 
234 208 191
237 214 200 
237 214 200 
237 213 201 
236 216 206 
237 219 208
238 219 209 
237 220 212 
235 221 216 
235 222 216 
235 221 216
233 220 217 
234 220 218 
231 218 216 
229 217 217 
230 218 218
231 220 219 
232 221 222 
229 219 221 
228 218 219 
227 219 219
225 219 218 
226 219 218 
226 220 220 
226 221 221 
225 220 220
225 220 220 
226 220 221 
226 221 221 
229 223 223 
228 221 221
230 224 224 
230 223 223 
231 225 225 
235 227 226 
238 230 227
244 231 227 
243 229 224 
235 225 222 
231 223 220 
225 216 214
225 216 214 
224 215 215 
216 211 214 
215 213 215 
213 214 215
212 212 212 
212 212 212 
212 212 212 
213 211 213 
214 211 213
214 211 213 
213 211 213 
213 211 213 
213 211 213 
211 209 211
211 209 211 
209 207 209 
208 206 208 
207 207 209 
207 206 208
207 206 208 
208 205 208 
208 206 208 
209 206 209 
207 206 205
207 206 204 
207 206 205 
207 206 204 
208 206 203 
207 205 203
206 205 202 
204 204 200 
205 200 198 
205 200 198 
201 201 197
226 209 201 
227 210 202 
229 212 204 
231 213 203 
232 213 203
232 213 203 
238 220 209 
245 228 216 
253 236 224 
253 236 224
250 230 214 
243 219 198 
243 215 192 
246 213 189 
252 230 210
248 236 220 
250 239 227 
246 236 225 
249 243 235 
254 252 250
252 250 249 
249 247 247 
248 246 244 
253 247 242 
252 240 232
249 233 222 
248 230 218 
251 232 219 
250 236 223 
247 237 224
248 235 224 
250 237 228 
250 240 235 
250 240 233 
247 233 224
250 237 227 
245 226 214 
240 216 203 
243 223 212 
247 230 221
245 226 217 
241 223 214 
237 220 211 
237 220 211 
237 220 212
236 218 212 
235 217 212 
234 217 211 
229 217 213 
229 218 213
230 218 214 
228 217 215 
226 216 215 
226 216 215 
225 216 214
224 216 214 
225 216 215 
224 217 215 
223 217 216 
224 217 216
224 217 217 
225 218 217 
224 218 217 
224 217 217 
223 218 218
225 219 219 
225 219 219 
224 219 219 
229 222 221 
232 224 222
235 225 224 
240 228 227 
242 228 223 
244 230 223 
237 223 216
237 222 215 
237 222 217 
235 222 219 
230 220 216 
222 216 211
216 212 209 
218 214 211 
216 212 209 
215 211 210 
215 210 211
214 209 210 
214 209 210 
213 208 210 
212 207 208 
212 207 208
211 208 209 
210 207 208 
210 207 208 
211 206 208 
209 205 206
208 204 205 
206 203 203 
206 203 204 
206 203 204 
206 204 202
206 204 201 
206 204 201 
207 204 201 
208 204 200 
208 204 201
207 203 198 
208 203 196 
209 201 195 
209 199 194 
205 199 193
231 213 201 
232 213 202 
232 214 203 
235 215 203 
235 214 202
238 217 205 
252 232 221 
251 232 221 
246 227 214 
251 233 221
251 234 221 
251 235 220 
250 235 222 
250 238 224 
250 238 227
251 238 231 
253 241 233 
251 239 231 
250 242 237 
250 243 241
251 244 242 
253 247 243 
251 246 243 
249 245 243 
252 248 243
253 250 246 
251 247 245 
253 249 247 
251 248 245 
250 246 240
252 249 247 
251 251 250 
249 248 245 
251 243 241 
253 248 244
250 248 245 
252 244 239 
252 239 231 
250 231 221 
249 227 213
244 224 211 
243 221 210 
241 220 210 
241 219 209 
240 218 208
237 217 208 
235 216 207 
234 215 207 
232 216 206 
230 215 205
228 214 205 
226 213 207 
225 212 207 
224 210 205 
223 211 206
222 211 207 
222 211 207 
222 211 208 
221 212 209 
224 214 212
225 215 212 
225 216 213 
225 217 214 
225 216 214 
224 216 215
224 216 215 
224 216 215 
224 218 217 
227 220 218 
232 224 221
231 223 220 
233 225 221 
231 224 217 
231 222 216 
234 222 220
235 224 221 
236 223 219 
240 224 219 
236 222 215 
233 222 213
232 221 214 
225 216 210 
220 213 209 
214 209 208 
214 209 209
212 207 207 
213 206 206 
213 205 206 
210 203 203 
208 203 202
208 203 201 
208 203 201 
209 203 202 
211 203 203 
210 202 202
207 200 200 
203 198 197 
202 198 197 
202 198 197 
200 196 194
200 196 193 
201 197 194 
201 197 193 
201 197 193 
202 197 194
202 197 191 
206 199 189 
209 199 191 
211 199 191 
213 198 191
235 215 199 
236 216 200 
236 216 200 
240 217 201 
241 217 202
241 217 202 
245 221 208 
250 225 213 
246 221 207 
247 224 209
250 228 214 
249 226 213 
248 227 213 
246 228 210 
248 226 209
251 226 211 
251 230 219 
253 234 223 
253 234 222 
253 234 221
253 237 228 
251 240 230 
250 245 244 
251 250 251 
253 251 252
252 251 253 
252 251 254 
253 252 255 
252 252 254 
250 249 246
250 251 250 
250 252 251 
252 248 241 
250 241 232 
248 232 215
251 229 216 
253 231 220 
251 228 214 
249 223 208 
249 220 199
245 220 202 
245 216 197 
243 216 199 
241 217 203 
239 218 204
238 219 204 
239 220 208 
240 222 212 
241 218 205 
241 220 207
240 222 212 
235 217 206 
232 213 201 
232 213 201 
227 209 199
227 210 202 
229 211 203 
227 211 203 
226 212 206 
227 213 206
226 213 206 
228 216 210 
229 217 211 
228 216 211 
228 216 211
228 215 210 
227 214 209 
226 217 211 
226 217 211 
226 217 211
227 218 212 
226 218 211 
226 218 211 
228 217 213 
232 217 216
235 221 216 
235 221 214 
236 221 214 
237 221 211 
238 221 208
243 221 206 
239 219 206 
231 215 204 
223 207 198 
221 206 198
217 202 192 
215 200 195 
212 198 195 
208 198 193 
205 196 193
204 194 193 
204 194 193 
205 195 194 
206 196 193 
206 197 193
204 195 191 
201 195 190 
200 194 190 
199 193 189 
199 194 189
200 194 189 
199 194 189 
199 194 189 
200 194 189 
202 196 190
203 197 189 
205 198 188 
207 196 186 
208 196 185 
209 198 185
237 213 193 
238 214 194 
238 213 194 
240 215 195 
241 216 197
242 217 197 
243 216 197 
244 216 197 
245 218 197 
246 218 196
248 217 194 
246 216 193 
249 217 193 
251 218 191 
251 219 192
251 220 193 
253 225 201 
253 228 206 
251 227 206 
251 232 212
253 239 226 
253 245 236 
254 250 250 
252 250 251 
252 249 250
252 249 250 
254 251 252 
252 249 251 
251 250 249 
251 250 245
253 250 249 
255 250 252 
252 247 244 
252 245 237 
253 233 217
253 226 206 
251 223 202 
248 218 193 
248 217 192 
247 211 182
243 209 183 
242 208 180 
239 206 180 
237 207 184 
234 206 185
235 209 188 
237 212 194 
239 215 199 
241 213 199 
242 216 204
245 222 212 
241 220 207 
243 222 208 
244 223 209 
237 218 206
239 221 211 
242 223 213 
242 225 215 
238 221 213 
234 218 209
233 217 208 
234 218 209 
235 218 210 
235 219 210 
234 217 209
233 217 209 
232 216 207 
229 216 207 
227 215 206 
225 213 203
224 212 202 
225 212 203 
225 213 203 
226 212 205 
228 212 207
228 213 204 
232 217 205 
239 220 208 
243 222 207 
241 219 203
244 221 206 
244 218 202 
243 215 195 
239 211 191 
240 212 193
237 209 189 
236 208 192 
234 208 194 
228 206 190 
223 205 192
218 202 193 
217 200 191 
215 199 191 
213 201 191 
214 201 192
213 201 191 
212 199 190 
212 199 190 
212 200 190 
211 199 189
211 199 189 
210 198 188 
211 198 189 
212 198 188 
211 197 186
211 197 185 
212 198 183 
216 198 183 
218 198 181 
219 198 179
240 211 190 
243 215 193 
245 217 194 
241 214 191 
243 216 194
243 216 194 
245 216 192 
246 214 190 
246 215 190 
249 216 190
252 217 191 
252 218 191 
252 218 190 
252 217 189 
249 219 191
252 226 198 
253 231 208 
251 234 216 
251 241 227 
249 244 236
253 249 243 
251 251 241 
251 250 249 
252 250 251 
252 250 250
252 250 250 
253 250 250 
252 249 249 
252 250 249 
251 247 239
250 243 226 
249 237 213 
252 234 205 
250 225 187 
250 220 179
251 229 196 
252 233 208 
249 234 211 
251 233 212 
248 221 188
249 227 198 
247 229 204 
247 226 202 
245 219 190 
239 209 177
241 211 184 
237 207 182 
234 203 181 
237 207 184 
235 207 187
235 209 191 
238 214 198 
239 215 200 
235 212 196 
232 210 196
233 212 199 
231 210 196 
232 212 200 
235 216 205 
237 218 207
236 217 205 
232 213 201 
232 213 201 
232 213 201 
233 214 202
233 214 203 
234 215 203 
234 217 205 
234 217 206 
232 215 204
228 211 200 
228 211 200 
227 210 198 
227 210 200 
227 210 201
228 212 198 
230 214 200 
231 213 203 
233 213 201 
234 214 200
235 215 202 
236 214 200 
237 214 198 
238 215 199 
239 216 201
237 214 198 
235 211 197 
235 211 197 
232 212 196 
231 212 197
231 209 196 
230 207 194 
226 206 192 
223 207 191 
221 205 190
220 204 189 
221 203 188 
221 202 188 
221 202 187 
221 203 187
221 203 188 
222 203 188 
220 201 187 
219 200 185 
219 199 183
219 199 181 
219 199 178 
224 201 179 
225 200 178 
224 198 174
239 205 178 
238 207 180 
238 210 177 
240 206 176 
242 209 178
248 211 180 
249 214 180 
251 219 187 
251 221 192 
250 221 190
250 220 191 
252 220 186 
253 221 185 
252 224 190 
253 230 204
253 237 218 
253 246 240 
253 251 248 
250 252 251 
249 250 250
251 249 246 
251 248 247 
251 250 250 
252 250 249 
252 250 249
251 251 251 
251 252 254 
250 251 253 
250 251 252 
252 249 245
253 241 227 
253 233 209 
252 228 191 
251 222 174 
250 215 158
248 211 153 
249 209 155 
249 213 163 
247 220 181 
249 222 182
252 228 194 
251 234 207 
251 232 203 
251 228 196 
251 224 190
252 222 191 
249 214 183 
246 209 177 
245 214 182 
245 214 184
246 214 188 
245 217 192 
242 215 192 
239 213 191 
239 214 192
237 212 190 
234 209 188 
230 206 187 
233 210 192 
237 214 196
236 213 196 
240 217 201 
241 218 202 
237 214 198 
236 214 197
236 214 198 
237 216 199 
240 218 200 
241 218 202 
241 218 206
237 215 201 
236 215 199 
237 216 200 
235 214 198 
229 210 195
228 209 193 
227 207 193 
228 207 195 
228 207 195 
228 207 195
231 210 193 
232 211 194 
233 211 195 
234 211 195 
234 211 195
233 210 194 
229 207 192 
229 207 193 
228 206 192 
226 204 190
226 204 190 
225 203 189 
224 203 188 
219 203 187 
219 203 187
219 203 186 
224 203 186 
224 203 185 
223 202 185 
223 202 184
223 201 183 
222 200 182 
221 199 181 
220 197 179 
218 196 178
219 195 176 
219 193 173 
218 192 172 
216 190 170 
214 189 169
228 188 161 
221 185 161 
217 185 160 
224 186 154 
226 190 159
229 188 157 
234 193 157 
241 204 168 
246 213 177 
250 221 184
255 231 200 
255 229 191 
254 226 188 
255 229 195 
252 236 212
250 244 228 
252 243 233 
252 246 242 
253 251 252 
253 250 249
251 249 248 
251 250 252 
252 251 253 
252 252 252 
252 252 252
252 252 253 
251 252 254 
251 252 254 
250 252 253 
249 253 252
251 252 250 
253 252 249 
253 249 245 
253 246 237 
253 244 228
253 240 219 
252 233 205 
248 231 195 
250 234 206 
252 229 200
250 229 200 
253 235 213 
251 225 193 
251 222 184 
252 219 188
253 221 188 
251 218 184 
251 218 183 
253 221 184 
250 217 183
253 219 189 
250 216 187 
250 218 190 
251 221 194 
250 220 194
250 220 194 
247 217 193 
243 213 190 
243 214 192 
242 214 191
243 215 193 
244 217 195 
243 216 194 
241 214 192 
241 214 193
241 214 192 
242 216 194 
244 216 191 
241 213 189 
242 212 192
236 210 192 
234 209 192 
236 211 194 
235 210 192 
233 209 189
230 206 187 
228 204 186 
228 204 190 
228 204 189 
228 204 189
230 206 188 
230 206 188 
230 206 188 
230 204 187 
230 204 187
231 205 187 
227 203 186 
226 202 187 
224 201 185 
223 199 184
223 199 184 
222 198 183 
221 198 182 
217 197 181 
217 198 181
218 198 181 
220 197 179 
220 196 178 
218 195 177 
218 195 175
217 195 174 
217 195 175 
218 194 174 
218 193 173 
217 192 173
218 192 172 
217 189 169 
215 188 168 
213 186 166 
212 186 165
198 158 135 
187 153 135 
176 146 132 
183 150 134 
157 134 126
153 130 125 
156 131 121 
162 133 121 
177 140 123 
192 151 125
207 167 140 
219 178 146 
223 185 150 
238 205 168 
253 227 192
249 225 194 
251 233 212 
253 241 223 
251 241 224 
253 245 234
253 251 248 
251 252 254 
251 252 254 
251 252 254 
251 252 254
251 252 254 
251 252 254 
251 252 254 
251 253 253 
250 254 251
250 254 253 
250 253 254 
249 253 255 
250 253 254 
251 253 252
253 253 251 
254 246 241 
253 243 233 
252 242 233 
253 238 222
252 236 217 
253 239 221 
254 235 214 
254 233 211 
252 226 197
251 221 184 
253 220 183 
251 215 177 
251 212 170 
247 209 168
246 206 169 
250 210 172 
252 213 175 
250 212 175 
252 214 179
253 215 180 
249 211 177 
245 207 174 
238 201 170 
236 199 168
239 202 172 
241 207 177 
241 207 177 
240 206 177 
241 204 176
242 205 177 
246 209 180 
243 208 174 
240 205 173 
239 203 174
230 199 175 
226 199 179 
225 198 177 
226 198 177 
227 199 178
228 200 179 
228 201 179 
227 199 181 
227 200 182 
227 200 182
225 200 181 
224 200 180 
224 199 180 
225 200 180 
226 200 181
226 200 181 
225 199 181 
223 198 181 
223 197 180 
222 196 180
221 195 179 
221 195 179 
220 195 178 
219 194 177 
219 194 177
219 194 177 
218 193 173 
219 194 174 
220 195 176 
217 193 172
216 192 171 
216 192 171 
217 192 171 
218 191 171 
217 191 171
217 190 169 
216 187 165 
214 186 164 
212 185 162 
212 185 163
123 112 121 
121 110 119 
125 114 122 
128 116 122 
124 113 120
128 116 123 
131 118 123 
133 116 121 
141 117 120 
152 123 119
156 121 114 
160 123 113 
172 132 114 
185 141 114 
216 167 132
220 166 124 
222 169 127 
229 179 130 
232 183 127 
242 196 136
248 212 156 
251 222 180 
252 239 221 
251 251 247 
252 251 250
251 252 253 
250 253 253 
249 252 251 
250 252 251 
253 251 252
252 251 249 
253 252 249 
252 251 247 
251 248 244 
252 247 244
254 248 241 
255 244 235 
254 239 227 
253 239 224 
252 236 216
252 233 211 
252 232 207 
252 230 202 
254 229 200 
255 226 193
254 224 189 
254 222 188 
254 222 189 
254 221 187 
251 217 182
251 218 180 
253 218 180 
253 218 179 
254 219 181 
255 219 181
253 217 179 
253 217 180 
253 216 178 
248 208 170 
241 202 164
238 198 160 
232 192 156 
226 185 155 
223 182 158 
227 184 160
226 183 157 
232 189 162 
238 198 163 
236 196 162 
232 190 159
227 190 165 
220 187 167 
216 185 166 
215 187 170 
216 188 173
219 191 172 
222 195 173 
224 195 173 
226 196 173 
228 196 173
227 197 176 
226 196 175 
225 195 175 
227 197 174 
228 198 174
228 198 175 
227 197 174 
228 197 175 
227 196 174 
223 194 172
221 193 172 
219 191 170 
218 191 171 
217 192 174 
218 191 172
220 191 169 
224 193 168 
218 188 167 
211 181 165 
212 186 163
214 188 164 
215 187 166 
216 186 164 
216 185 161 
216 185 162
215 185 161 
214 183 159 
215 183 160 
214 183 159 
212 181 157
144 124 123 
149 128 125 
153 131 126 
158 133 125 
161 133 123
160 131 119 
166 132 120 
180 142 123 
188 147 121 
187 144 120
179 135 117 
175 132 117 
172 129 116 
171 128 114 
175 129 110
183 134 110 
192 139 107 
200 147 110 
209 157 114 
224 166 113
241 180 113 
250 197 126 
249 217 165 
253 238 215 
254 248 243
250 251 249 
251 252 249 
249 250 247 
250 249 245 
254 245 236
252 245 232 
252 246 231 
252 243 226 
250 238 221 
252 239 222
250 236 207 
252 235 206 
252 230 196 
250 228 191 
253 231 193
252 226 187 
250 222 178 
251 220 170 
253 217 165 
253 213 162
251 212 163 
251 211 163 
252 212 166 
249 210 166 
251 212 169
252 213 170 
254 214 174 
255 216 177 
255 216 176 
255 216 178
254 214 179 
255 217 181 
255 217 181 
255 216 180 
255 216 181
253 214 176 
250 211 168 
245 203 165 
241 197 163 
234 194 161
226 186 156 
221 180 155 
215 178 153 
209 174 151 
209 173 153
206 171 154 
199 167 153 
194 166 154 
193 166 155 
193 166 156
194 167 157 
199 171 158 
205 175 156 
217 182 159 
228 188 163
231 190 164 
231 189 164 
231 190 164 
227 188 163 
226 188 164
225 187 163 
223 187 162 
222 189 164 
222 189 163 
221 186 162
219 185 162 
217 183 160 
216 182 160 
214 182 160 
217 182 157
220 183 156 
223 182 155 
215 175 150 
207 169 145 
204 170 148
199 167 149 
195 165 152 
201 169 150 
207 172 146 
209 173 149
208 174 150 
207 173 152 
206 172 151 
205 172 151 
205 173 149
217 173 139 
218 173 137 
219 173 136 
221 172 135 
226 175 137
225 172 133 
224 173 132 
227 176 132 
229 173 126 
232 172 127
229 169 123 
238 179 121 
236 178 118 
232 178 122 
237 184 127
236 183 126 
235 181 127 
228 174 118 
228 174 117 
238 184 127
244 192 131 
246 198 133 
252 216 156 
252 233 195 
254 245 230
252 250 246 
251 251 247 
252 251 248 
252 251 248 
255 249 246
253 248 242 
253 247 239 
252 241 226 
250 237 215 
252 238 210
251 230 185 
251 225 175 
252 223 169 
252 221 170 
252 218 168
252 216 162 
252 213 158 
252 210 155 
249 202 145 
250 200 142
249 198 142 
246 195 141 
245 193 140 
246 194 141 
245 193 144
240 186 142 
237 186 146 
239 190 150 
235 186 145 
229 182 146
227 182 151 
231 186 153 
233 190 157 
231 191 158 
233 193 160
235 195 161 
243 202 166 
243 203 166 
243 203 165 
241 199 163
238 194 164 
232 187 164 
225 185 158 
221 182 155 
221 181 159
217 177 155 
215 176 155 
211 175 156 
205 172 155 
202 170 155
201 167 157 
199 166 157 
197 167 156 
200 167 154 
204 168 153
205 170 150 
209 175 154 
210 175 155 
207 172 154 
209 174 157
210 174 157 
209 175 157 
209 176 157 
209 176 157 
211 177 157
214 178 157 
213 178 157 
213 178 157 
212 178 156 
214 178 153
219 180 154 
218 178 155 
218 179 153 
217 180 152 
219 180 151
218 178 151 
214 173 150 
212 173 149 
213 174 149 
212 172 147
210 172 148 
206 170 148 
204 168 146 
203 168 146 
201 169 148
233 180 138 
237 185 141 
241 188 142 
236 184 137 
229 176 131
231 177 131 
236 184 135 
235 183 134 
235 183 130 
240 187 132
239 185 128 
248 193 130 
255 202 134 
251 196 128 
250 193 125
251 192 124 
251 193 124 
248 196 127 
250 207 141 
250 213 150
246 204 143 
249 200 131 
252 221 161 
251 231 186 
251 232 201
253 239 218 
254 243 224 
252 240 216 
254 239 214 
255 237 210
255 237 206 
255 234 200 
254 228 186 
254 225 179 
254 222 170
253 216 156 
253 212 148 
252 207 143 
254 201 133 
254 195 127
253 193 129 
250 192 130 
243 188 130 
241 184 129 
238 181 128
233 178 128 
231 178 131 
228 176 132 
229 172 132 
225 169 132
221 166 132 
219 166 134 
218 164 133 
216 163 132 
216 165 134
216 166 135 
218 167 136 
216 167 137 
208 164 137 
203 158 139
197 154 139 
191 155 141 
188 154 140 
187 156 142 
191 156 144
191 156 145 
194 159 150 
201 162 147 
210 167 145 
228 181 152
228 178 148 
228 179 151 
226 180 157 
212 169 150 
214 174 153
215 174 155 
214 173 154 
214 172 152 
216 174 154 
214 172 152
213 173 151 
214 175 153 
213 175 152 
217 176 152 
222 180 155
223 181 155 
215 177 156 
211 175 158 
209 173 156 
209 173 156
212 175 158 
215 178 158 
215 179 156 
214 179 158 
215 179 157
215 179 156 
215 179 156 
215 179 156 
214 178 155 
215 178 154
215 177 154 
216 177 154 
215 176 153 
214 175 152 
213 174 151
210 173 151 
206 172 152 
205 171 150 
205 170 150 
204 169 150
216 167 132 
223 174 135 
226 178 137 
232 180 137 
239 187 140
234 182 134 
229 176 128 
232 179 127 
235 182 127 
240 189 130
248 198 136 
250 200 137 
252 204 139 
251 202 139 
252 200 136
254 199 135 
254 200 131 
252 199 126 
250 200 128 
248 197 118
249 195 120 
251 201 129 
252 217 155 
252 219 162 
252 223 167
253 229 180 
253 230 188 
251 224 174 
252 224 175 
250 224 174
250 222 164 
253 222 165 
254 216 155 
255 212 147 
254 207 140
253 202 132 
253 199 127 
255 197 125 
253 193 121 
250 189 122
248 186 125 
244 183 125 
238 179 126 
233 174 126 
228 168 125
222 163 125 
218 162 127 
214 160 129 
213 157 129 
210 156 130
208 157 133 
210 161 134 
211 162 135 
212 162 135 
209 162 137
208 161 138 
205 158 135 
209 162 139 
214 166 141 
221 171 143
221 170 142 
221 174 148 
218 173 149 
216 174 150 
213 170 148
213 169 148 
217 173 152 
215 172 150 
216 173 148 
223 179 147
223 177 147 
221 176 148 
217 175 151 
215 172 151 
220 176 152
220 177 153 
220 177 152 
222 177 153 
223 178 153 
225 180 155
228 183 158 
226 182 156 
227 182 156 
225 180 156 
224 179 156
222 177 154 
218 175 153 
217 175 154 
217 175 154 
216 175 154
215 175 155 
216 176 154 
215 176 153 
214 176 155 
214 176 155
215 177 155 
219 178 154 
218 178 156 
217 178 158 
213 177 157
212 177 156 
212 177 156 
213 175 156 
212 174 156 
211 172 154
208 172 153 
205 171 152 
205 171 152 
204 170 151 
205 169 148
216 169 137 
218 172 137 
217 172 134 
225 174 134 
236 183 138
237 185 137 
242 189 138 
244 191 137 
248 195 138 
251 200 141
255 206 146 
255 205 144 
253 205 143 
253 208 146 
254 205 142
254 203 139 
253 201 135 
254 202 130 
255 201 127 
254 202 130
255 209 142 
253 216 151 
251 220 160 
254 222 163 
255 226 173
253 226 175 
254 226 175 
254 223 166 
252 220 163 
253 221 162
251 217 151 
253 216 150 
251 213 148 
251 210 142 
253 207 136
254 206 135 
254 203 133 
254 198 127 
251 191 120 
247 187 119
244 183 121 
238 177 119 
241 181 127 
236 174 126 
232 170 125
233 170 128 
224 165 126 
218 161 126 
219 162 131 
212 157 128
210 158 130 
206 156 130 
206 156 131 
208 158 132 
208 159 135
207 159 137 
210 162 139 
215 164 143 
218 166 144 
221 169 142
226 174 143 
228 176 146 
225 177 147 
225 179 150 
228 181 151
233 185 155 
234 186 156 
232 186 156 
231 187 156 
229 188 156
232 187 158 
233 186 157 
229 187 156 
228 186 157 
228 184 156
228 184 156 
228 184 157 
227 184 157 
227 184 157 
227 183 157
226 183 159 
226 183 159 
227 183 159 
229 185 158 
232 187 159
228 183 155 
226 181 156 
225 179 155 
224 178 154 
222 178 153
219 179 152 
217 176 153 
214 172 152 
216 172 153 
216 172 154
216 172 154 
214 169 150 
209 169 152 
203 168 154 
198 166 156
197 167 157 
197 167 157 
199 166 155 
201 166 155 
202 167 156
204 167 155 
205 167 152 
205 167 153 
205 168 152 
204 168 150
238 188 148 
240 189 147 
242 191 147 
244 191 146 
247 194 146
250 199 144 
251 202 146 
254 205 150 
255 206 150 
254 207 150
255 207 152 
255 207 151 
254 208 150 
253 208 146 
253 208 147
253 207 147 
254 207 147 
253 208 144 
253 210 148 
252 215 153
253 219 161 
255 221 166 
255 225 170 
253 228 174 
254 229 182
254 227 185 
254 228 185 
255 227 179 
254 224 174 
254 222 167
255 221 164 
254 218 157 
254 215 151 
253 210 144 
253 207 138
253 205 134 
253 202 131 
254 198 128 
254 197 128 
253 194 128
252 190 127 
249 188 127 
248 188 130 
245 183 130 
243 182 131
243 184 133 
241 183 136 
237 180 135 
237 180 135 
234 179 136
233 179 139 
233 179 140 
234 179 140 
235 180 141 
232 179 141
231 178 142 
232 179 145 
232 180 146 
229 178 146 
229 179 147
230 180 148 
230 181 148 
228 180 152 
227 181 157 
228 181 157
229 182 157 
230 183 157 
229 184 156 
228 185 158 
229 185 158
230 185 156 
231 184 156 
232 188 157 
234 188 159 
234 186 157
233 188 156 
233 188 157 
232 187 160 
232 187 158 
232 187 157
235 188 161 
238 192 164 
237 193 164 
228 187 164 
214 175 162
214 176 160 
228 184 163 
233 185 163 
233 187 161 
233 188 162
230 187 162 
230 187 164 
229 185 164 
227 183 161 
228 183 159
230 182 157 
227 177 156 
217 173 154 
205 168 151 
200 166 154
199 165 156 
197 163 156 
198 162 155 
197 161 153 
196 161 156
194 161 155 
193 160 154 
191 159 153 
192 159 152 
193 161 151
219 180 150 
225 184 152 
236 192 157 
240 198 161 
243 201 157
251 207 155 
255 215 159 
255 213 157 
255 209 151 
254 208 150
254 209 151 
254 209 152 
255 210 151 
255 214 151 
255 214 152
255 216 153 
255 218 156 
255 220 158 
255 222 165 
254 222 167
253 222 170 
253 221 175 
254 224 175 
253 229 179 
253 229 184
255 228 187 
255 229 186 
255 228 182 
254 226 178 
254 224 175
254 223 171 
255 220 167 
255 216 155 
255 214 150 
255 211 146
254 208 139 
254 205 136 
255 203 136 
255 202 136 
255 199 135
255 197 133 
255 196 133 
252 193 132 
251 191 134 
248 189 134
244 188 136 
245 188 140 
243 185 140 
239 185 138 
237 183 139
235 180 140 
234 180 142 
234 180 142 
234 180 142 
233 181 143
233 180 145 
232 179 148 
231 179 148 
230 180 147 
230 180 147
231 179 148 
230 178 153 
228 179 155 
226 180 155 
229 182 157
231 183 158 
231 183 160 
230 184 158 
230 184 160 
231 185 160
234 187 161 
236 188 164 
234 187 163 
235 186 161 
237 189 160
236 190 161 
236 190 160 
238 188 160 
235 188 161 
230 187 162
217 180 164 
197 169 163 
173 155 159 
149 140 155 
133 129 156
134 130 155 
145 136 154 
152 142 158 
153 145 158 
155 145 157
154 140 154 
158 145 159 
160 145 159 
163 144 153 
179 158 162
177 154 154 
181 154 153 
208 174 164 
227 185 165 
231 184 160
230 182 161 
229 180 162 
228 180 160 
223 178 158 
220 178 160
218 178 162 
217 177 162 
214 175 159 
213 174 160 
211 172 160
135 126 149 
140 131 154 
128 120 143 
129 122 141 
141 128 141
155 136 143 
185 158 147 
216 183 153 
240 203 157 
252 209 156
254 209 158 
251 207 155 
250 207 157 
230 191 148 
238 200 152
237 200 149 
228 192 145 
228 191 147 
239 202 155 
248 216 169
255 226 173 
255 229 175 
255 228 178 
253 224 176 
255 230 184
255 231 184 
253 225 180 
254 225 177 
255 225 175 
253 224 175
254 222 171 
254 220 167 
255 217 159 
255 215 154 
255 213 149
255 210 145 
254 207 142 
255 205 141 
254 205 140 
254 204 139
254 201 137 
255 199 136 
255 198 136 
255 197 139 
254 196 141
254 195 140 
251 192 141 
249 190 142 
245 192 142 
244 191 143
243 189 145 
241 188 148 
240 188 148 
241 188 147 
239 187 147
238 186 148 
238 185 151 
237 186 153 
236 186 153 
235 186 153
236 185 154 
237 185 156 
238 188 158 
236 189 157 
235 187 158
233 184 160 
232 182 164 
230 184 164 
234 186 159 
234 187 161
218 180 163 
207 171 159 
216 179 166 
215 182 168 
203 175 161
198 170 162 
195 168 164 
184 162 161 
165 149 157 
154 145 162
135 136 160 
128 130 158 
126 129 160 
128 129 161 
129 132 165
128 132 166 
124 130 163 
121 129 162 
119 127 162 
117 124 161
115 122 159 
113 120 157 
109 118 155 
106 117 153 
107 113 153
108 111 154 
102 114 152 
115 118 146 
141 135 151 
177 154 160
188 161 163 
189 163 163 
199 169 164 
200 169 163 
192 164 161
183 158 159 
179 154 159 
179 155 160 
181 156 159 
189 161 159
126 128 168 
99 106 148 
81 93 137 
83 96 143 
89 99 144 
97 100 142
103 102 143 
113 108 143 
134 122 144 
149 133 145 
154 138 145
149 131 138 
149 132 140 
135 119 131 
148 125 134 
153 125 132
150 122 128 
155 122 127 
165 127 126 
179 136 123 
202 158 133
216 173 143 
204 162 131 
193 145 112 
209 160 122 
241 202 158
255 227 178 
255 226 173 
255 224 169 
252 222 166 
253 219 163
253 216 159 
252 215 157 
254 214 155 
254 212 152 
253 210 148
253 208 146 
254 206 145 
253 205 142 
253 204 140 
253 203 140
254 201 139 
255 200 140 
255 199 142 
255 198 143 
255 197 142
255 196 143 
254 196 145 
251 195 143 
249 194 145 
248 192 146
246 191 149 
245 190 150 
245 191 151 
244 192 152 
244 192 155
243 191 157 
243 190 158 
243 191 159 
245 194 160 
245 194 160
239 191 162 
223 181 163 
203 168 160 
180 160 160 
171 154 159
171 153 164 
171 157 165 
177 160 163 
174 157 163 
151 145 162
141 140 162 
144 142 163 
143 143 164 
138 138 162 
136 136 165
133 135 166 
130 136 165 
131 135 167 
131 133 168 
134 135 171
134 136 169 
133 135 166 
131 135 168 
130 134 167 
129 134 169
127 135 166 
126 135 166 
126 134 171 
124 133 169 
121 132 166
119 129 164 
117 129 165 
115 128 164 
114 124 162 
116 124 163
114 125 163 
108 123 161 
101 119 158 
102 115 157 
103 115 155
102 115 151 
106 117 154 
106 116 155 
102 113 153 
97 110 152 
95 109 153
96 109 153 
96 109 152 
100 110 151 
81 94 145 
75 93 142 
81 100 149
87 103 151 
92 105 152 
98 107 153 
107 110 155 
114 114 156 
117 114 154
117 114 151 
120 116 151 
124 117 150 
127 119 148 
132 125 148
139 126 148 
145 127 148 
149 128 146 
154 129 144 
159 130 142
163 128 133 
167 125 128 
169 124 125 
172 125 125 
177 127 121
180 123 108 
188 131 106 
230 187 148 
248 210 164 
248 210 162
251 217 161 
255 220 161 
255 219 159 
255 214 153 
254 210 149
253 206 145 
252 205 144 
253 206 146 
253 205 146 
253 202 142
254 202 141 
253 202 140 
254 201 140 
255 201 141 
254 199 143
254 199 145 
254 198 147 
254 198 146 
254 197 145 
254 197 146
253 196 148 
253 195 150 
253 194 150 
250 194 152 
246 193 153
245 192 152 
247 193 153 
249 195 158 
248 194 159 
241 191 162
220 182 166 
196 168 164 
179 160 167 
163 150 163 
154 146 165
151 146 165 
150 147 168 
148 147 170 
146 147 168 
144 145 168
143 144 170 
145 146 173 
145 148 174 
142 145 170 
142 144 172
143 144 176 
142 143 174 
141 143 174 
140 143 174 
138 140 171
136 139 170 
135 139 174 
134 139 174 
134 140 174 
133 140 176
133 139 176 
134 139 176 
131 139 175 
127 137 173 
123 132 170
126 137 173 
122 136 170 
122 134 173 
121 134 175 
118 132 173
115 130 170 
115 130 170 
114 130 171 
114 130 171 
113 128 169
112 128 169 
112 127 169 
110 125 167 
108 124 167 
106 123 167
106 123 167 
106 123 167 
106 124 167 
105 123 166 
104 123 166
103 121 164 
76 99 153 
77 101 155 
82 103 158 
86 106 157 
90 107 156
95 109 155 
103 110 156 
111 114 159 
117 117 157 
121 120 157
126 123 158 
130 124 157 
134 126 158 
135 128 157 
137 129 155
139 129 153 
145 131 152 
150 132 151 
155 133 148 
161 135 150
165 135 149 
170 135 148 
170 136 143 
172 136 139 
179 136 135
182 133 128 
185 133 120 
190 138 119 
191 139 119 
195 141 117
201 150 120 
219 171 134 
241 196 147 
255 210 154 
255 210 149
255 209 152 
255 208 151 
255 208 147 
255 205 148 
255 202 147
253 200 146 
253 200 145 
254 199 144 
254 198 147 
254 198 150
254 199 152 
254 198 151 
253 198 151 
254 199 152 
254 198 154
253 196 155 
251 195 155 
250 196 157 
248 197 160 
251 197 162
241 191 163 
221 181 162 
204 173 167 
184 161 168 
166 154 166
159 153 171 
161 151 174 
160 153 175 
160 155 175 
160 155 174
157 155 175 
154 155 177 
153 154 175 
153 153 175 
152 152 179
151 151 179 
150 151 179 
150 150 178 
148 150 179 
146 149 181
143 146 177 
142 145 177 
142 147 179 
141 146 178 
140 145 177
139 145 181 
138 145 181 
138 145 181 
136 144 181 
135 143 181
136 144 181 
135 143 183 
128 139 172 
108 119 149 
111 123 159
127 141 178 
129 142 183 
127 140 184 
123 139 181 
122 137 179
120 136 178 
117 134 176 
116 133 176 
115 132 175 
115 132 175
115 132 174 
114 131 174 
111 130 173 
108 129 173 
109 131 174
109 129 173 
108 128 171 
109 129 173 
107 127 171 
105 128 170
79 104 157 
80 104 157 
87 105 160 
85 107 159 
87 108 158 
93 109 158
100 111 160 
109 115 163 
114 118 162 
118 119 160 
122 122 160
129 126 163 
134 128 164 
136 128 164 
136 129 162 
137 130 160
142 133 160 
147 134 158 
151 135 155 
154 137 156 
157 138 154
161 137 152 
161 137 150 
164 139 147 
171 137 145 
174 137 142
180 140 141 
183 138 135 
181 134 131 
180 130 129 
174 127 124
169 126 120 
178 133 123 
195 149 131 
203 156 132 
212 165 137
221 175 141 
231 185 144 
242 191 147 
252 199 153 
254 202 155
255 202 152 
255 204 153 
255 204 156 
255 201 155 
253 198 154
254 200 155 
255 201 156 
254 199 155 
251 197 158 
252 198 162
251 197 164 
248 196 168 
242 193 168 
219 180 167 
190 163 165
174 158 170 
166 158 177 
164 159 180 
166 159 180 
165 159 178
161 159 177 
161 158 180 
160 157 182 
159 157 179 
158 159 181
157 160 184 
156 158 182 
156 157 183 
155 156 185 
154 155 185
154 155 185 
152 153 183 
151 153 184 
150 154 187 
149 153 186
148 152 185 
145 151 185 
144 150 184 
144 150 184 
142 150 187
141 150 187 
141 150 186 
139 149 186 
139 148 187 
139 148 187
137 146 185 
95 107 130 
52 63 78 
91 104 133 
134 149 190 
132 146 190
130 145 190 
126 143 187 
125 142 186 
124 141 185 
122 141 184
120 139 182 
118 137 180 
118 137 181 
118 137 180 
117 136 180
115 137 181 
113 137 181 
112 136 180 
112 135 179 
113 134 179
112 133 178 
109 130 176 
109 129 174 
77 106 161 
82 107 163 
84 106 163
85 108 160 
89 110 160 
95 114 164 
103 117 166 
109 119 166 
114 118 167
118 121 165 
123 127 166 
126 127 168 
128 126 168 
131 128 167
135 130 166 
138 130 165 
140 133 164 
144 134 162 
148 136 159
149 138 159 
152 138 158 
154 138 156 
157 138 154 
161 139 154
165 140 153 
167 140 150 
173 142 150 
177 143 149 
175 140 144
175 139 142 
174 139 142 
174 138 142 
172 137 141 
170 133 136
171 131 131 
168 129 131 
168 129 131 
169 130 132 
172 132 133
182 141 138 
186 146 138 
187 148 135 
197 156 140 
209 165 148
214 167 150 
219 170 153 
228 180 159 
237 189 166 
227 180 162
215 172 161 
215 175 167 
210 174 166 
201 172 169 
191 168 174
178 162 174 
174 162 178 
175 165 181 
169 162 182 
165 161 184
165 161 184 
164 162 185 
162 162 186 
162 162 186 
162 162 186
161 163 187 
160 162 187 
160 162 187 
160 161 188 
159 160 189
159 159 187 
157 159 189 
155 158 190 
153 156 187 
153 157 188
152 158 189 
152 157 189 
151 156 189 
149 155 189 
149 155 189
148 154 188 
146 154 191 
145 155 191 
143 156 191 
143 156 191
143 155 195 
142 155 193 
147 160 197 
107 117 143 
15 21 26 
64 75 91
132 145 183 
132 147 191 
132 149 193 
131 148 192 
129 146 190
129 146 190 
125 145 188 
123 144 187 
121 142 185 
119 140 185
119 140 185 
119 140 185 
119 140 184 
119 140 183 
117 138 181
115 136 180 
115 136 181 
114 135 180 
114 134 179 
112 132 177
78 110 165 
81 110 166 
84 109 167 
87 113 165 
91 115 164 
93 115 165
101 118 166 
107 120 165 
112 119 167 
117 124 167 
120 128 168
121 126 167 
123 125 166 
126 126 166 
132 129 167 
136 131 168
138 133 167 
142 135 166 
146 136 163 
147 138 165 
149 138 165
151 137 162 
152 138 160 
154 140 159 
158 141 158 
162 142 157
168 145 158 
170 144 155 
170 142 152 
169 142 152 
169 142 152
168 141 152 
166 142 151 
168 143 150 
172 143 148 
172 142 152
171 141 153 
170 139 151 
167 140 151 
162 138 149 
160 135 148
157 136 147 
155 136 146 
156 134 142 
157 133 142 
162 138 146
165 141 148 
171 148 153 
176 154 160 
172 150 162 
167 147 159
164 148 162 
159 148 163 
156 149 165 
159 149 168 
159 147 169
158 150 174 
159 153 177 
160 155 178 
162 158 180 
160 158 181
159 159 183 
160 159 184 
160 160 184 
160 162 187 
162 164 189
161 163 188 
159 160 188 
155 156 185 
156 157 185 
152 154 184
153 156 187 
157 159 190 
156 160 191 
156 161 194 
155 160 192
156 161 194 
156 162 196 
152 158 192 
152 158 192 
152 160 197
149 160 196 
148 161 195 
147 159 198 
146 158 201 
144 157 193
140 155 188 
109 121 145 
17 22 21 
34 45 49 
91 106 132 
137 153 190
135 152 195 
135 152 196 
134 151 195 
132 150 193 
128 148 191
127 148 191 
127 148 191 
125 146 189 
124 145 188 
122 142 186
124 145 187 
124 146 187 
121 143 184 
118 139 182 
116 137 182
117 138 183 
116 137 182 
114 135 180 
75 109 166 
78 109 166 
82 111 169
88 117 168 
93 121 169 
96 121 169 
106 126 173 
110 126 170 
116 127 172
121 132 175 
120 133 172 
121 130 171 
120 126 168 
124 127 169
129 129 169 
134 132 170 
136 134 171 
140 136 170 
144 136 167
144 138 171 
145 138 171 
148 137 168 
147 138 165 
148 139 164
151 139 162 
155 142 161 
160 145 162 
164 146 161 
165 146 159
163 145 161 
163 145 161 
163 145 161 
159 145 161 
161 145 159
164 145 157 
166 147 159 
166 147 160 
166 146 159 
164 146 157
163 146 157 
163 145 157 
160 146 159 
158 147 160 
161 147 160
159 144 156 
155 143 156 
154 142 154 
152 141 153 
150 140 156
151 140 158 
153 140 157 
153 140 158 
152 140 160 
151 140 159
150 140 159 
148 141 161 
146 141 164 
147 143 166 
148 144 167
148 144 167 
147 146 168 
146 146 170 
146 146 170 
147 147 171
146 148 173 
150 152 177 
148 150 175 
147 148 176 
147 148 176
148 149 177 
147 150 179 
148 152 183 
150 153 184 
150 154 185
153 158 190 
154 159 190 
156 162 194 
157 163 197 
155 161 194
155 161 195 
152 161 197 
149 159 194 
150 162 197 
149 162 197
153 165 202 
126 139 167 
84 100 115 
70 83 93 
20 30 26 
15 28 27
62 79 91 
87 105 133 
140 158 201 
138 155 199 
138 155 199 
135 153 197
131 151 194 
130 151 194 
130 151 194 
131 153 195 
130 152 194
128 150 191 
128 149 192 
126 147 191 
125 145 189 
123 144 189
124 145 191 
122 143 188 
122 143 188 
123 144 189 
79 111 170 
80 113 168
85 118 171 
91 124 175 
97 127 175 
101 128 175 
108 130 176 
117 134 177
124 138 179 
120 135 176 
115 133 174 
123 138 176 
127 139 178
129 135 180 
128 132 174 
130 131 171 
131 133 169 
138 137 172
142 138 174 
141 138 172 
145 139 173 
145 137 172 
147 137 169
149 141 168 
151 143 168 
153 143 164 
158 145 163 
162 146 164
162 146 163 
158 145 163 
158 145 163 
158 145 163 
159 144 166
159 145 165 
162 148 165 
164 149 166 
164 149 166 
163 149 165
163 149 165 
163 148 166 
161 146 167 
160 147 167 
159 148 164
160 149 165 
162 151 167 
161 149 167 
162 150 168 
160 149 167
158 151 167 
159 151 168 
159 151 168 
156 150 169 
154 148 169
155 148 169 
152 149 169 
152 150 171 
153 151 172 
152 151 172
150 151 172 
147 149 170 
149 150 172 
148 150 173 
147 149 172
146 148 171 
146 147 175 
146 147 175 
147 148 176 
147 148 178
148 149 179 
150 150 180 
149 152 181 
151 155 184 
152 156 185
151 156 185 
150 157 185 
149 156 185 
150 157 185 
151 158 186
151 158 186 
153 160 188 
152 161 191 
152 161 191 
153 163 192
151 166 192 
155 168 196 
151 160 187 
41 53 57 
17 26 21 
18 23 22
17 23 24 
16 27 30 
77 95 119 
153 171 214 
148 166 205 
150 167 206
147 164 203 
143 163 201 
144 163 202 
142 161 199 
141 162 200
138 160 198 
135 157 194 
133 153 193 
133 151 194 
133 152 194
129 148 190 
126 147 188 
125 147 188 
125 146 186 
120 141 179
95 127 182 
93 125 178 
95 128 177 
99 133 179 
102 134 178 
105 134 176
112 136 179 
116 137 182 
119 135 181 
115 133 179 
115 137 181
120 139 181 
123 140 181 
126 141 185 
130 141 184 
134 143 182
138 143 179 
138 140 177 
140 139 177 
142 142 175 
146 144 176
149 143 177 
150 143 176 
152 145 175 
153 146 172 
154 147 171
158 149 173 
163 150 174 
164 150 173 
160 148 172 
160 148 171
159 147 171 
159 146 172 
159 148 171 
161 150 170 
162 151 173
161 150 173 
163 151 174 
161 152 173 
160 153 174 
161 153 178
159 152 176 
159 152 174 
159 152 175 
161 155 176 
160 157 174
159 157 174 
159 156 173 
160 155 173 
161 156 174 
158 154 171
156 153 172 
156 152 172 
155 151 170 
154 151 172 
153 152 173
154 152 173 
152 153 173 
153 155 176 
153 155 176 
151 154 175
149 153 176 
149 154 176 
150 154 176 
149 152 178 
149 152 178
149 152 178 
147 152 180 
147 152 181 
149 154 183 
150 154 183
150 155 184 
153 157 186 
154 159 188 
153 160 188 
155 162 190
155 162 190 
155 163 190 
155 162 190 
156 164 191 
149 160 188
136 148 175 
126 137 165 
125 143 167 
113 131 151 
116 132 149
118 132 138 
21 30 27 
10 15 15 
11 16 15 
37 50 59 
123 143 168
108 123 150 
127 145 179 
129 147 182 
127 145 179 
126 144 179
125 143 177 
122 140 174 
123 139 174 
120 135 170 
117 132 167
115 133 166 
111 130 162 
113 132 165 
113 130 164 
109 123 157
107 122 156 
109 124 157 
105 120 151 
108 140 191 
108 140 188
109 142 187 
113 145 187 
118 147 188 
126 152 190 
132 157 194
128 153 191 
128 148 191 
130 149 193 
134 153 194 
138 153 193
138 152 190 
140 155 192 
144 157 191 
150 160 193 
155 162 195
155 160 194 
151 153 189 
152 155 187 
154 156 187 
158 155 188
160 154 189 
161 154 188 
163 156 187 
164 159 185 
165 160 183
170 162 185 
172 162 185 
172 161 186 
171 161 185 
172 162 186
169 163 184 
168 163 181 
172 167 182 
176 169 189 
174 167 188
174 166 188 
172 165 184 
172 166 184 
169 162 184 
169 164 186
170 168 188 
170 168 188 
173 170 191 
173 171 189 
166 164 182
164 162 180 
164 160 180 
165 161 181 
165 161 180 
161 159 178
161 159 178 
161 159 178 
159 157 178 
158 156 177 
158 156 177
154 154 175 
155 157 178 
157 158 179 
156 158 180 
154 159 181
153 159 181 
153 159 181 
154 159 182 
154 159 182 
154 159 182
151 160 186 
150 160 188 
151 161 188 
152 159 187 
153 159 187
154 161 189 
155 162 190 
154 161 189 
148 155 183 
146 153 181
148 155 183 
143 150 178 
133 140 168 
118 132 159 
112 126 153
116 130 157 
125 141 166 
132 146 168 
53 67 69 
71 86 88 
50 62 64
6 14 15 
18 28 28 
50 69 71 
47 64 67 
81 98 112 
133 153 184 
121 140 170
121 141 170 
124 141 171 
123 140 171 
124 141 171 
124 140 171
124 141 172 
125 142 172 
125 142 170 
128 146 173 
131 148 175
131 147 174 
128 142 171 
124 138 167 
123 138 166 
119 134 163
115 147 193 
120 152 196 
120 151 194 
125 156 195 
136 164 201
144 168 202 
144 168 201 
145 168 202 
146 169 204 
148 170 205
152 172 206 
154 170 202 
160 174 203 
163 175 205 
168 175 206
171 175 206 
169 176 206 
172 177 207 
174 176 208 
175 176 211
174 175 209 
173 174 205 
173 171 202 
171 168 197 
165 164 185
163 161 177 
163 160 174 
166 162 177 
171 167 180 
173 169 181
175 171 183 
172 168 180 
171 169 180 
173 172 182 
171 170 179
160 157 167 
156 154 164 
152 151 160 
143 141 152 
134 130 143
129 125 139 
137 135 149 
133 134 149 
150 150 167 
138 137 155
141 139 157 
169 167 186 
176 174 193 
179 175 193 
181 177 195
178 174 192 
177 176 192 
174 172 188 
172 167 184 
169 165 184
168 166 186 
169 167 186 
167 166 187 
165 164 187 
164 163 186
163 164 185 
161 165 185 
161 164 187 
161 165 188 
160 166 188
158 164 186 
158 163 186 
158 164 189 
160 167 191 
159 166 190
152 159 186 
147 153 181 
145 152 175 
144 151 173 
144 150 172
143 149 170 
144 150 172 
141 151 174 
136 147 170 
133 143 166
132 141 167 
138 146 172 
140 148 175 
135 149 175 
143 156 181 
66 79 78
12 22 15 
17 20 21 
14 18 19 
20 31 30 
14 29 22 
30 46 43 
119 135 150
131 147 171 
143 158 186 
143 159 186 
146 162 190 
146 163 191
146 163 191 
145 163 189 
144 162 188 
142 160 186 
145 160 188
146 160 189 
146 161 189 
144 159 187 
141 155 185 
140 155 184
137 152 181 
137 151 181 
111 145 194 
118 151 198 
124 156 203
134 161 204 
143 168 208 
143 167 206 
142 164 203 
147 169 207
151 173 212 
154 176 211 
141 161 191 
132 146 177 
143 155 186
166 177 209 
169 178 211 
173 181 214 
171 181 207 
176 184 210
174 179 206 
172 177 201 
166 172 192 
162 169 186 
157 162 177
152 156 169 
144 148 157 
135 141 145 
131 138 139 
129 135 137
123 130 132 
119 127 128 
118 126 128 
115 123 125 
114 123 125
113 121 124 
109 118 121 
110 111 118 
119 117 125 
123 119 128
115 113 124 
110 110 123 
111 111 123 
104 105 117 
97 102 115
102 106 122 
101 106 123 
96 103 119 
112 118 134 
124 130 146
117 120 136 
142 145 161 
164 167 183 
170 170 183 
178 175 188
187 181 195 
186 181 195 
183 181 195 
182 180 194 
181 179 193
182 179 194 
180 177 193 
179 176 193 
176 174 191 
175 173 190
172 170 188 
167 166 183 
166 165 182 
166 166 183 
164 164 180
166 166 183 
166 166 182 
162 162 181 
160 161 180 
163 164 181
161 164 182 
158 164 184 
157 162 181 
154 160 180 
152 161 182
152 162 182 
156 165 186 
158 165 189 
158 165 189 
157 164 188
153 164 189 
167 178 204 
110 120 126 
34 43 37 
17 21 19 
16 22 22
21 29 28 
13 21 17 
33 44 41 
66 78 86 
105 120 138 
147 161 187
156 170 199 
155 171 198 
155 171 198 
154 170 197 
150 166 192
151 166 192 
151 168 193 
151 166 194 
152 165 195 
151 165 194
151 165 194 
151 165 193 
149 163 191 
147 161 189 
146 160 189
104 131 150 
115 142 158 
121 145 160 
125 148 160 
131 154 168
126 153 169 
127 153 169 
131 156 173 
134 160 176 
132 154 172
118 134 157 
118 130 158 
115 121 153 
135 140 169 
135 144 172
137 150 176 
134 149 169 
136 148 168 
136 144 165 
135 146 163
140 153 165 
140 153 162 
143 153 164 
149 157 169 
149 158 170
149 159 169 
148 160 168 
144 157 165 
135 148 155 
125 141 143
121 136 139 
120 136 138 
116 134 135 
112 131 131 
107 126 126
111 124 127 
119 125 131 
130 128 136 
131 132 143 
124 129 141
132 136 148 
124 130 141 
119 126 138 
116 122 137 
113 121 136
106 121 134 
99 115 127 
94 110 122 
94 111 124 
97 114 127 
104 121 134
104 121 133 
113 127 140 
148 159 173 
150 157 171 
155 160 174
152 158 172 
149 155 167 
138 144 157 
125 131 151 
130 135 158
143 145 166 
150 153 169 
168 171 184 
179 176 192 
174 171 187
173 170 187 
180 177 192 
183 180 194 
180 178 193 
180 179 193
178 178 192 
175 174 192 
174 175 194 
171 173 194 
170 172 193
172 175 196 
170 178 197 
170 178 197 
172 180 199 
170 179 200
169 177 199 
167 175 197 
170 180 201 
153 162 176 
157 164 173 
89 97 94
23 32 24 
17 23 18 
18 25 22 
20 31 29 
19 33 29 
43 58 61 
119 133 150
172 185 209 
160 172 198 
163 177 204 
161 176 202 
161 175 202
158 172 199 
158 172 199 
155 170 197 
154 169 197 
154 168 197
150 164 193 
148 162 190 
148 162 190 
146 161 189 
150 164 192
148 162 191 
82 96 93 
105 117 119 
128 145 149 
118 137 145 
111 139 138
112 143 142 
114 145 146 
113 145 142 
110 144 143 
109 141 144
104 128 144 
97 114 137 
102 115 137 
110 122 144 
108 120 144
112 125 147 
122 137 154 
119 132 150 
124 132 152 
125 135 155
131 145 160 
138 153 164 
140 154 164 
141 155 166 
142 154 167
144 157 171 
150 165 174 
156 167 179 
151 167 175 
147 167 171
140 158 165 
140 156 165 
138 157 163 
135 155 161 
129 150 155
127 146 151 
130 146 150 
130 142 144 
127 134 142 
125 132 147
134 141 155 
137 144 158 
137 151 164 
136 152 161 
129 149 160
127 148 158 
126 146 159 
121 141 156 
119 139 153 
119 142 155
117 143 154 
117 144 158 
114 141 156 
114 140 155 
111 137 151
110 137 150 
109 137 150 
104 131 145 
96 119 136 
91 110 133 
91 108 134
91 109 133 
97 115 137 
123 140 160 
135 145 164 
142 150 169 
153 162 181
160 170 190 
165 172 193 
166 170 191 
174 179 196 
181 188 203
179 184 204 
179 183 205 
181 185 206 
182 185 207 
182 187 207
180 186 205 
180 186 206 
183 188 210 
183 188 211 
182 188 210
182 188 210 
173 180 196 
108 119 120 
66 74 71 
57 66 60 
26 37 29
16 22 17 
22 30 27 
22 35 33 
45 59 57 
68 82 83 
149 161 174 
127 140 153
149 163 183 
171 183 208 
166 178 203 
166 178 203 
165 178 205
163 176 203 
165 175 203 
162 171 202 
154 165 197 
153 164 195
149 162 193 
147 161 192 
150 161 193 
152 162 195 
150 163 194 
64 60 54
98 95 95 
127 133 152 
118 128 160 
112 131 149 
107 144 146 
100 137 136
102 134 130 
103 145 144 
100 142 139 
100 137 141 
103 129 143
107 129 143 
108 126 146 
100 115 139 
114 128 149 
122 137 155
119 132 152 
120 129 152 
118 124 147 
129 138 157 
134 145 160
136 150 165 
139 151 167 
141 148 159 
139 147 163 
143 156 173
148 160 177 
146 162 171 
127 139 142 
150 166 175 
149 166 179
148 168 176 
148 168 177 
146 166 175 
147 165 173 
149 166 173
152 168 171 
152 167 172 
145 161 173 
138 154 163 
134 146 159
140 153 168 
150 167 174 
145 165 176 
142 165 178 
147 166 182
148 166 184 
150 167 188 
149 167 188 
141 163 182 
138 163 177
139 166 178 
139 167 179 
137 165 179 
138 166 180 
139 167 181
137 165 179 
137 163 179 
137 156 176 
136 152 175 
129 146 171
134 151 177 
131 149 175 
123 145 169 
129 151 174 
136 158 181
132 156 177 
137 160 180 
147 165 185 
157 176 191 
165 185 199
160 180 197 
161 179 198 
167 182 202 
167 182 202 
172 188 207
161 176 193 
148 163 184 
147 162 185 
162 174 198 
165 177 201
165 177 201 
159 172 188 
90 104 107 
42 51 45 
18 27 19 
17 29 22
19 32 25 
15 27 24 
14 23 22 
21 30 28 
63 72 72 
58 68 67 
79 92 94
175 188 207 
164 179 203 
160 175 200 
161 175 200 
162 178 203
160 174 200 
164 176 201 
163 170 201 
156 164 198 
156 166 198
156 166 199 
150 160 192 
123 138 169 
121 139 168 
125 139 168 
75 60 48
67 58 49 
98 103 110 
120 127 148 
124 131 154 
119 146 156 
88 117 111
71 90 82 
111 151 149 
105 144 144 
95 126 138 
86 106 130 
84 99 125
88 98 129 
86 95 128 
95 103 133 
116 133 154 
115 130 153 
114 125 151
100 104 120 
129 134 150 
129 135 151 
133 142 162 
146 152 171
108 104 107 
96 89 95 
138 139 153 
148 156 174 
129 137 144 
73 71 69
138 151 157 
146 167 180 
147 167 177 
150 169 180 
151 170 181
155 172 186 
156 172 184 
161 175 184 
161 179 184 
161 179 184
159 178 181 
156 174 184 
154 171 184 
154 166 175 
154 166 182
150 168 191 
152 173 191 
150 175 190 
152 175 193 
155 174 194
159 176 197 
158 179 196 
154 177 191 
151 174 187 
149 175 189
146 174 188 
144 172 186 
144 173 186 
148 177 191 
151 175 194
148 167 189 
144 161 186 
144 161 186 
146 164 188 
146 164 191
148 167 194 
154 172 199 
153 173 195 
153 175 194 
155 176 194
150 179 191 
146 179 191 
142 174 190 
141 171 190 
141 169 187
141 170 187 
142 170 188 
138 166 184 
130 158 179 
130 156 181
130 156 179 
124 150 173 
125 151 175 
71 93 98 
82 102 101 
58 73 70
29 38 31 
26 40 31 
21 35 28 
13 23 20 
13 22 22 
15 24 23 
16 26 26
59 73 74 
110 125 139 
115 132 148 
154 174 198 
150 171 195 
152 172 195
150 171 198 
150 169 198 
149 165 194 
143 158 189 
131 149 179
108 128 157 
115 133 163 
111 126 157 
90 111 140 
82 104 131 
88 104 127
70 59 50 
57 50 44 
67 71 67 
89 93 99 
129 137 158 
133 145 164 
82 90 89
39 48 39 
99 130 127 
108 148 149 
103 138 144 
104 132 144 
99 130 141
100 127 144 
98 120 141 
97 114 139 
94 108 133 
109 120 147 
108 114 143
77 75 85 
111 113 119 
96 99 106 
131 138 154 
136 139 158 
70 60 57
67 54 49 
94 88 87 
149 152 164 
99 98 100 
57 47 39 
111 120 120
141 166 174 
138 160 170 
144 165 176 
145 169 179 
149 170 181
155 173 184 
157 175 187 
162 179 188 
160 176 180 
137 147 150
166 184 196 
167 185 198 
130 137 141 
126 131 139 
154 168 192
148 165 187 
148 173 187 
152 179 192 
143 165 176 
113 131 138
135 151 161 
141 157 173 
154 174 196 
150 172 190 
145 172 186
144 172 189 
146 175 189 
146 176 192 
154 178 195 
157 179 199
160 180 201 
157 174 198 
153 170 194 
146 166 190 
143 163 188
141 160 187 
145 164 190 
149 171 192 
147 173 192 
140 170 187
138 169 186 
138 169 189 
135 167 186 
130 163 181 
127 161 179
126 159 178 
122 154 176 
119 152 175 
121 155 179 
128 160 184
121 151 175 
121 151 171 
80 101 101 
24 42 32 
48 64 60 
44 56 50
24 36 30 
17 26 22 
14 23 20 
15 30 26 
20 34 31 
33 47 45 
57 74 75
40 60 64 
98 124 138 
149 170 198 
139 157 186 
135 156 185 
134 155 192
135 155 190 
138 155 194 
106 128 159 
75 101 127 
73 99 127 
76 102 128
84 107 133 
85 106 137 
85 104 132 
83 103 119 
54 50 43 
51 49 44
47 45 41 
68 69 74 
126 142 161 
124 138 154 
61 65 64 
41 41 35 
73 93 90
107 152 155 
88 120 136 
89 111 130 
96 123 136 
101 134 142 
110 144 151
110 143 154 
106 130 146 
111 130 151 
104 113 134 
61 51 56 
70 64 63
65 59 58 
111 116 118 
104 107 113 
62 50 42 
64 52 44 
70 61 52
128 128 131 
89 85 82 
55 42 38 
88 92 91 
131 152 155 
97 114 117
136 160 171 
133 156 159 
90 100 97 
120 133 135 
149 177 186 
152 177 189
145 161 164 
115 112 110 
158 171 180 
168 186 199 
99 96 95 
95 93 88
160 178 195 
148 165 189 
148 170 187 
155 179 196 
117 135 141 
70 83 78
82 96 92 
101 115 121 
153 178 199 
145 166 188 
144 169 190 
150 172 198
129 151 165 
133 157 171 
118 139 151 
148 172 190 
157 178 195
163 178 200 
157 172 199 
141 162 186 
135 156 183 
128 148 179
125 146 175 
127 152 176 
123 154 178 
121 152 179 
119 148 175
117 147 174 
117 146 173 
113 142 168 
115 146 171 
120 152 177
120 152 178 
115 150 176 
108 148 170 
115 150 174 
122 154 175 
64 94 99
79 99 100 
50 64 52 
15 27 19 
15 23 20 
15 22 20 
10 22 18 
14 31 25
22 40 32 
18 35 29 
11 23 21 
11 24 23 
73 96 100 
146 173 195 
126 150 178
123 146 175 
115 142 170 
104 132 164 
133 161 187 
124 148 179
95 118 146 
77 100 126 
79 101 132 
78 99 130 
76 96 127 
72 92 121
75 96 117 
74 93 108 
45 39 40 
47 43 42 
40 38 34 
53 54 53 
113 127 138
104 117 124 
46 51 48 
42 35 34 
64 71 71 
107 143 148 
94 131 146
86 116 134 
89 111 132 
93 115 135 
106 134 145 
109 141 148 
115 146 154
116 148 159 
104 127 131 
63 59 54 
64 53 49 
55 43 39 
89 88 84 
93 92 88
60 46 40 
61 47 42 
61 48 41 
101 98 95 
81 75 68 
55 43 37 
71 70 65
95 104 103 
73 75 79 
120 134 146 
92 101 98 
48 39 31 
74 74 72
139 166 168 
142 172 178 
129 137 138 
83 69 60 
133 138 138 
158 175 182
95 90 85 
83 77 73 
146 161 177 
149 164 190 
144 161 185 
149 168 190
86 97 98 
60 60 55 
83 88 86 
73 87 86 
128 159 171 
141 171 189
137 165 189 
144 165 190 
79 93 102 
98 113 118 
80 95 100 
143 162 180
120 136 148 
117 131 142 
161 180 203 
126 146 165 
140 159 180
144 162 186 
132 152 179 
120 145 173 
115 145 170 
117 152 173
115 150 172 
113 149 170 
112 145 170 
107 137 166 
104 136 164
102 136 164 
106 143 169 
106 146 171 
111 156 179 
111 158 179
113 158 180 
94 129 135 
32 53 46 
26 41 30 
29 42 33 
16 22 20 
11 17 14
14 28 23 
14 30 24 
15 30 24 
29 43 39 
22 32 29 
28 47 37 
82 110 103
94 122 125 
66 94 104 
90 124 145 
87 117 147 
75 109 133 
114 149 162
100 131 147 
77 101 125 
69 90 120 
66 86 119 
70 89 124 
67 84 118
70 89 113 
65 85 100 
62 78 97 
45 40 45 
45 42 42 
42 40 36 
33 32 28
85 93 100 
90 98 101 
38 38 35 
31 30 27 
44 46 46 
104 118 131
120 147 161 
114 150 156 
114 153 160 
121 158 163 
109 138 139
103 124 128 
125 154 161 
120 151 158 
91 108 105 
62 61 54 
58 49 47
51 39 38 
88 82 79 
80 75 70 
70 57 52 
67 55 52 
59 47 42 
96 91 86
82 77 70 
53 43 39 
62 58 54 
89 90 89 
70 66 72 
99 102 102 
70 71 62
56 47 43 
61 56 55 
105 115 112 
119 135 135 
99 99 96 
69 52 40 
102 99 93
134 144 143 
80 71 67 
82 72 69 
119 128 137 
134 150 171 
138 153 180
133 149 171 
81 85 83 
57 51 44 
70 71 69 
64 77 74 
126 159 168
132 172 184 
129 167 182 
122 148 165 
60 72 72 
70 77 75 
60 72 72
119 137 151 
59 74 76 
51 64 63 
141 164 179 
99 119 133 
116 136 154
145 167 191 
136 159 182 
125 151 176 
121 150 173 
116 152 172
109 146 168 
114 151 172 
109 146 168 
99 136 163 
105 144 170
101 143 168 
94 135 162 
95 139 165 
104 151 176 
102 152 174 
108 157 175
95 134 134 
28 51 38 
20 35 25 
14 26 17 
12 23 19 
14 22 20 
13 21 19
11 23 18 
15 31 25 
19 33 29 
17 28 25 
18 30 24 
14 28 22 
30 52 45
57 88 92 
86 123 142 
87 113 141 
97 120 147 
116 139 156 
115 133 151
100 119 141 
79 100 125 
69 88 117 
68 85 118 
67 82 115 
69 86 114
69 86 109 
60 72 95 
38 36 38 
47 46 42 
39 38 33 
27 28 26 
70 75 80
54 59 61 
31 32 28 
29 31 25 
38 38 36 
112 119 132 
134 145 167
122 139 162 
104 134 147 
112 148 156 
86 109 110 
78 92 95 
128 164 168
112 142 141 
59 62 57 
59 54 50 
57 48 45 
53 41 40 
73 62 60 
68 60 53
70 63 51 
72 64 55 
59 49 45 
71 63 57 
77 72 66 
63 59 56 
67 64 60
80 79 75 
65 64 67 
73 71 69 
64 62 52 
52 45 42 
51 45 42 
71 66 63
83 81 78 
95 89 84 
71 56 47 
96 86 76 
118 118 108 
71 58 51 
70 56 47
75 69 61 
117 131 135 
142 167 185 
120 136 150 
73 68 66 
59 54 49
61 63 57 
64 71 69 
101 127 132 
125 164 176 
120 156 177 
106 130 149
51 60 55 
55 60 54 
41 52 52 
84 103 108 
47 61 59 
36 45 42 
105 130 136
60 80 87 
89 109 127 
116 147 176 
109 141 164 
110 142 169 
105 137 166
99 133 162 
102 134 167 
97 130 165 
94 128 158 
87 121 157 
80 115 138
93 137 165 
91 136 165 
86 130 159 
86 131 161 
99 145 175 
74 115 122
69 96 86 
56 75 64 
27 43 33 
14 28 18 
11 22 18 
7 11 13 
7 13 13 
15 27 24
18 33 28 
12 30 24 
10 20 17 
10 16 14 
14 24 21 
32 47 42 
49 72 67
61 87 89 
117 137 152 
86 110 132 
86 113 130 
76 104 118 
73 97 117
74 95 119 
69 88 115 
54 71 104 
56 75 105 
65 84 107 
73 94 110 
75 98 107
42 41 39 
45 44 39 
31 30 29 
23 24 26 
49 51 54 
49 51 54 
28 29 28
31 32 31 
39 39 37 
73 82 88 
110 126 141 
114 134 157 
100 118 143
124 144 167 
85 96 104 
57 62 67 
114 146 152 
86 106 106 
46 38 38
61 57 53 
49 45 41 
48 39 36 
61 52 53 
66 60 51 
70 66 45 
64 61 46
60 55 50 
65 56 50 
68 61 55 
57 53 48 
58 56 50 
60 60 53 
60 59 59
58 56 55 
58 55 49 
48 41 39 
46 39 37 
64 59 56 
80 79 75 
77 71 66
69 54 47 
80 67 57 
82 74 61 
73 56 46 
72 58 48 
71 57 52 
94 96 103
138 166 183 
101 117 124 
63 56 51 
62 54 47 
60 56 50 
46 46 43 
76 89 93
120 148 171 
112 139 177 
93 110 126 
42 48 40 
46 52 46 
47 54 52
56 68 68 
46 56 54 
37 45 41 
68 90 92 
41 55 56 
46 60 72 
105 134 162
98 131 160 
91 123 159 
94 126 164 
85 117 145 
85 116 143 
92 127 163
81 115 148 
84 117 147 
59 90 103 
84 125 156 
97 143 172 
94 138 167
78 125 153 
81 136 165 
91 137 160 
38 63 50 
23 36 24 
35 48 40 
23 38 28
23 38 32 
14 24 23 
12 20 19 
12 21 19 
15 27 23 
15 29 24 
11 19 16
13 19 17 
16 28 24 
14 28 24 
8 26 20 
44 81 86 
65 101 120 
42 73 92
54 86 100 
53 86 95 
43 72 84 
69 95 106 
67 94 103 
88 115 121 
95 123 122
90 120 116 
80 107 105 
96 124 112 
46 45 41 
35 34 30 
24 23 25 
25 25 30
32 32 32 
39 40 42 
36 37 39 
29 30 31 
36 36 33 
65 74 75 
79 93 105
125 138 160 
137 149 173 
114 128 147 
58 64 68 
48 49 52 
96 113 123
57 65 67 
40 34 34 
52 50 47 
45 42 37 
52 45 42 
64 58 51 
71 69 50
73 70 50 
65 65 52 
63 63 55 
53 46 41 
52 44 39 
63 58 52 
62 59 52
54 53 46 
60 60 55 
54 53 49 
49 46 43 
46 40 39 
45 39 36 
52 48 45
75 74 69 
59 54 47 
64 51 44 
77 62 55 
85 71 66 
71 53 46 
70 58 48
67 57 48 
84 82 84 
115 133 150 
102 116 119 
63 55 49 
60 51 41 
60 55 46
54 52 46 
65 73 72 
96 122 148 
99 131 166 
65 87 85 
52 61 47 
46 51 46
48 52 48 
41 48 43 
39 46 43 
34 42 38 
55 73 70 
43 55 52 
49 62 69
93 124 150 
82 117 144 
83 117 151 
90 124 163 
66 93 111 
55 82 91
83 117 141 
57 93 106 
66 101 110 
44 71 75 
79 118 149 
86 133 161
94 141 169 
94 140 168 
60 107 115 
63 106 114 
66 95 86 
22 31 22
10 17 10 
13 25 17 
16 32 26 
12 25 23 
11 20 18 
11 15 15 
10 19 16
9 21 17 
8 14 12 
13 20 17 
10 21 17 
25 41 35 
73 103 100 
87 125 123
86 123 121 
70 100 104 
82 112 110 
96 128 120 
76 106 104 
94 125 119
98 133 116 
94 124 113 
91 123 115 
98 132 120 
91 119 116 
96 125 119
43 47 47 
25 27 28 
21 22 26 
23 24 27 
28 29 30 
29 30 32 
26 27 29
26 28 28 
33 35 33 
59 64 61 
62 72 77 
115 130 148 
122 142 167 
77 92 106
36 39 43 
45 47 52 
77 87 94 
42 46 49 
34 30 33 
47 43 42 
51 46 43
48 39 39 
65 60 46 
67 69 48 
63 60 41 
71 72 53 
60 60 47 
44 41 36
53 48 43 
54 50 43 
59 57 47 
42 40 39 
56 56 52 
47 48 44 
43 43 41
41 40 39 
38 36 34 
43 42 38 
64 63 58 
57 53 47 
63 54 46 
68 56 49
71 57 52 
66 49 45 
70 54 49 
60 49 43 
66 58 56 
100 112 119 
90 101 100
59 53 46 
57 47 42 
56 46 40 
47 44 34 
45 51 47 
86 115 126 
100 137 161
64 83 74 
54 66 47 
50 60 50 
37 45 39 
37 42 40 
36 42 40 
36 45 42
42 52 49 
38 46 44 
33 44 45 
70 97 108 
54 84 96 
84 123 150 
95 131 163
55 74 85 
41 57 61 
66 93 98 
35 65 66 
54 85 84 
34 57 56 
79 117 137
75 122 136 
74 120 141 
69 115 136 
66 112 121 
40 70 59 
27 44 29
23 34 26 
18 30 23 
15 25 19 
15 24 20 
15 26 22 
7 19 14 
12 21 19 
8 14 14
8 17 16 
8 17 16 
13 23 20 
29 40 33 
39 51 42 
49 64 58 
55 73 66
82 103 101 
108 134 135 
100 130 128 
98 128 124 
87 116 119 
94 128 121
96 135 118 
83 113 106 
93 133 117 
98 141 119 
95 129 113 
90 121 112
34 38 39 
21 23 25 
23 23 27 
19 20 22 
23 24 26 
31 32 34 
26 26 29
25 26 26 
35 37 35 
47 50 47 
49 60 60 
82 107 116 
91 125 142 
54 68 78
38 41 46 
39 42 48 
53 59 64 
40 42 44 
32 30 34 
36 35 37 
44 42 39
45 38 39 
50 45 36 
56 56 42 
48 44 32 
56 57 40 
50 50 37 
49 45 40
52 48 42 
59 63 48 
66 72 54 
52 58 50 
49 51 46 
44 44 41 
38 38 37
37 36 35 
37 36 34 
39 38 34 
47 46 42 
52 48 45 
59 51 46 
61 49 43
62 48 43 
65 49 45 
66 49 43 
65 50 45 
65 52 45 
84 90 82 
71 78 67
52 43 35 
58 48 45 
57 48 42 
49 43 39 
47 49 44 
79 99 99 
96 124 139
55 70 57 
56 68 46 
50 62 45 
44 53 45 
36 42 41 
30 37 35 
32 41 38
37 47 44 
35 42 39 
29 39 40 
56 76 82 
36 54 61 
72 103 124 
75 107 123
46 61 62 
39 48 48 
39 57 55 
32 50 47 
50 75 72 
33 54 51 
58 87 89
57 96 93 
63 101 103 
50 89 85 
59 95 88 
59 87 71 
23 36 24 
20 31 24
21 33 27 
21 35 28 
11 23 18 
17 27 23 
12 24 20 
8 17 15 
7 14 14 
9 19 17
16 26 25 
13 25 24 
9 19 15 
11 20 13 
17 29 19 
25 44 36 
81 105 107
116 146 143 
106 142 128 
102 139 122 
93 127 115 
90 122 110 
103 143 118
111 149 121 
105 147 115 
99 144 110 
102 139 112 
97 133 109 
31 35 35
20 22 24 
18 18 22 
20 21 24 
24 26 27 
22 23 25 
22 23 25 
24 26 26
31 32 31 
33 38 34 
41 50 45 
54 71 76 
82 109 122 
36 48 54 
33 36 42
40 45 50 
47 49 50 
34 35 35 
31 30 34 
32 32 37 
38 39 36 
48 47 39
61 59 42 
57 58 40 
57 54 37 
57 58 40 
59 59 46 
50 47 42 
43 40 34
56 58 43 
59 64 46 
49 53 45 
42 43 39 
40 41 38 
36 36 34 
36 35 35
34 33 31 
35 34 30 
36 35 34 
45 40 40 
55 46 44 
58 46 42 
60 46 41
64 48 43 
63 46 41 
63 48 45 
63 50 45 
76 74 65 
69 74 62 
51 44 38
51 48 43 
52 46 40 
47 37 40 
44 41 37 
76 86 78 
88 107 114 
51 63 46
57 69 42 
58 70 48 
47 56 45 
33 39 38 
30 37 35 
31 39 36 
33 43 39
35 42 39 
30 40 40 
45 60 61 
34 46 51 
52 76 86 
53 75 76 
39 53 50
34 46 46 
35 51 46 
27 35 36 
36 55 52 
41 62 54 
49 67 62 
59 84 73
69 94 85 
67 93 72 
29 55 29 
31 50 30 
18 28 22 
13 21 17 
12 18 14
17 29 23 
15 28 23 
11 22 18 
12 24 19 
12 21 18 
8 14 15 
7 16 15 
12 21 21
8 18 20 
7 18 17 
15 26 22 
15 26 20 
48 69 56 
95 128 111 
97 133 121
100 142 115 
102 146 113 
108 150 121 
96 127 115 
104 139 125
106 145 118 
104 146 113 
101 146 110 
107 147 110 
110 151 107 
31 34 30
27 26 31 
19 16 20 
20 20 22 
21 22 24 
21 22 24 
21 22 24 
20 21 23
27 28 29 
31 35 35 
36 45 43 
29 38 39 
50 58 63 
34 36 41 
29 30 34
38 39 42 
41 42 43 
27 27 29 
27 27 29 
31 31 33 
37 38 35 
40 41 29
51 53 32 
55 57 35 
49 49 32 
55 57 38 
56 58 42 
41 42 32 
41 41 33
52 51 43 
62 65 51 
39 43 35 
42 44 41 
38 39 38 
31 33 33 
34 32 35
32 30 33 
34 32 34 
36 33 33 
42 38 36 
46 42 37 
52 46 41 
51 41 37
62 48 42 
66 50 44 
60 50 46 
58 49 44 
68 60 55 
66 62 56 
51 46 40
47 42 36 
45 42 35 
51 46 39 
47 45 34 
63 69 55 
78 90 83 
53 63 42
49 62 38 
39 53 34 
42 54 38 
35 43 37 
27 33 33 
27 33 33 
28 35 34
32 41 39 
26 35 33 
38 47 45 
35 48 48 
46 62 61 
46 61 59 
37 50 49
30 42 42 
28 41 41 
21 32 33 
27 42 41 
40 58 55 
41 59 56 
48 70 65
48 67 64 
49 66 55 
24 43 22 
16 31 17 
10 22 19 
10 17 16 
5 10 8 
10 21 17
14 24 21 
12 18 16 
9 16 14 
8 16 14 
8 18 17 
10 20 18 
7 16 15 
9 15 16
8 15 15 
10 17 17 
16 24 21 
41 60 42 
80 110 91 
92 126 111 
110 151 127
110 151 124 
103 145 118 
103 142 121 
98 140 114 
95 136 105 
92 130 99
90 124 96 
87 118 95 
80 110 90 
28 34 27 
20 21 25 
19 17 21 
18 19 21
20 21 23 
20 21 23 
20 21 23 
19 20 22 
28 29 31 
32 33 35 
35 37 38
23 24 27 
38 38 43 
25 26 31 
32 33 36 
40 41 42 
35 35 37 
26 26 28
27 27 29 
25 24 25 
32 32 30 
48 49 38 
56 58 39 
43 44 24 
36 37 24
43 44 30 
41 43 29 
49 51 39 
54 57 43 
58 64 44 
63 73 49 
57 68 48
48 52 48 
38 40 39 
30 32 32 
31 29 32 
32 30 33 
29 27 30 
33 30 32
37 35 34 
38 37 32 
43 41 36 
48 41 39 
55 43 39 
61 47 42 
57 49 44
54 45 40 
60 51 46 
57 52 46 
50 45 39 
51 45 40 
39 37 32 
55 56 39
71 74 49 
65 71 46 
65 76 50 
55 62 41 
53 64 41 
47 61 41 
55 68 49
30 40 31 
29 35 36 
26 32 32 
28 34 34 
30 39 38 
25 34 33 
30 39 38
35 47 46 
35 48 48 
37 50 50 
32 44 44 
30 42 42 
22 34 34 
20 32 32
18 31 31 
33 49 49 
28 43 43 
23 40 37 
28 43 43 
33 48 47 
28 46 31
18 35 20 
10 23 18 
13 23 21 
9 16 14 
15 25 22 
14 23 20 
11 16 15 
8 13 11
12 20 18 
11 23 21 
10 21 19 
11 21 19 
13 19 19 
13 18 18 
9 15 15 
7 15 13
26 44 32 
33 58 45 
78 117 93 
93 141 113 
83 126 103 
73 115 95 
76 110 97
78 102 95 
74 91 89 
85 103 97 
98 110 106 
96 106 106 
96 105 105
24 34 27 
13 18 21 
15 16 19 
18 18 20 
21 22 24 
18 19 21 
16 17 19
19 20 22 
25 26 28 
28 30 31 
37 38 40 
26 26 30 
28 28 33 
23 24 29
24 25 29 
32 33 35 
33 33 34 
29 29 31 
30 30 32 
30 30 30 
29 29 27
46 48 36 
51 53 35 
50 51 33 
41 41 29 
48 49 37 
52 55 39 
47 49 35
43 45 35 
50 52 38 
42 47 32 
46 53 38 
30 33 30 
34 36 35 
34 36 36
28 27 30 
29 27 30 
30 27 30 
28 27 30 
31 30 32 
35 34 32 
36 35 33
44 39 39 
50 40 39 
54 43 40 
55 46 41 
53 44 39 
58 50 44 
50 44 38
46 41 35 
45 40 34 
43 41 37 
40 37 31 
61 62 41 
67 71 46 
61 68 43
58 61 39 
46 55 33 
45 59 39 
40 53 34 
31 40 32 
28 34 34 
26 32 32
29 35 35 
29 38 37 
26 35 34 
26 35 34 
35 45 46 
29 40 40 
29 40 41
25 37 37 
24 37 37 
19 32 32 
19 29 30 
18 30 30 
24 39 38 
28 40 42
23 35 36 
22 38 35 
27 45 43 
29 47 36 
33 50 32 
14 28 19 
7 19 15
10 15 13 
11 15 14 
10 16 14 
9 16 13 
7 13 11 
9 15 14 
10 13 14 
9 12 13
8 12 13 
6 12 12 
9 15 15 
8 15 14 
6 13 13 
15 29 27 
63 89 77 
73 107 89
56 92 83 
64 95 99 
99 120 124 
109 122 119 
107 119 116 
118 120 127
124 121 122 
127 127 123 
121 125 119 
112 118 109 
38 51 33 
22 30 24
13 14 20 
20 21 24 
22 22 25 
18 20 21 
18 18 19 
18 19 20 
20 22 23
28 30 30 
25 30 30 
16 21 22 
22 26 28 
23 24 28 
26 28 32 
30 33 36
32 33 36 
30 31 34 
24 25 28 
33 35 35 
23 25 23 
33 35 27 
50 52 34
34 35 19 
28 25 16 
31 30 17 
45 47 31 
46 46 35 
43 43 32 
57 56 40
57 58 41 
60 64 45 
39 46 37 
34 39 35 
26 27 29 
25 24 26 
25 24 27
24 24 26 
26 26 29 
29 29 31 
31 31 32 
33 33 32 
41 38 36 
42 37 35
44 37 34 
51 43 39 
48 42 37 
50 45 41 
48 44 39 
45 39 35 
45 36 33
46 42 35 
51 49 37 
53 54 36 
69 74 45 
69 76 44 
62 69 40 
49 58 36
43 56 35 
47 59 41 
27 36 32 
24 29 32 
23 29 30 
25 31 31 
25 34 33
23 32 31 
23 32 31 
32 41 41 
29 38 38 
26 35 35 
25 35 36 
20 31 32
18 28 29 
17 26 27 
16 25 27 
19 31 31 
24 34 37 
17 26 30 
24 39 34
31 51 41 
24 42 29 
32 47 29 
22 34 22 
9 20 15 
9 19 16 
8 18 14 
9 16 14
13 18 18 
7 13 13 
7 12 12 
9 12 13 
7 10 11 
7 9 11 
10 13 14 
9 12 13
10 13 15 
9 11 12 
22 27 27 
41 53 47 
31 45 38 
38 56 63 
27 44 63
54 68 83 
108 115 115 
92 100 89 
107 121 111 
101 119 102 
92 116 93
81 110 81 
86 117 81 
46 61 33 
29 40 23 
14 16 18 
14 16 19 
16 19 21
15 18 19 
17 17 19 
15 15 19 
18 18 22 
23 23 25 
18 20 21 
24 26 23
27 30 28 
22 28 29 
28 33 35 
25 29 32 
25 27 31 
23 25 29 
32 33 37
37 41 42 
39 43 36 
40 43 32 
49 54 33 
43 47 28 
29 27 16 
39 37 24
44 45 31 
44 45 31 
52 54 37 
46 51 30 
46 53 32 
53 63 38 
44 51 35
30 36 32 
26 27 32 
26 26 28 
24 24 26 
24 24 26 
26 26 28 
28 28 30
28 28 31 
32 31 31 
39 37 34 
38 34 32 
40 34 33 
49 41 38 
45 40 34
49 45 41 
43 42 38 
43 39 35 
43 35 34 
41 37 30 
64 66 41 
67 70 42
54 59 34 
53 58 33 
45 51 29 
41 50 32 
45 57 36 
49 61 40 
28 37 30
23 28 27 
24 30 29 
22 28 28 
24 33 32 
23 32 31 
22 31 30 
24 33 32
26 35 34 
23 32 30 
22 31 31 
17 26 28 
19 29 30 
16 25 26 
15 24 25
20 30 31 
22 33 34 
19 30 33 
22 38 35 
21 40 32 
18 34 21 
16 28 17
20 29 19 
12 19 15 
8 15 13 
9 17 14 
8 13 13 
6 11 12 
8 13 14 
8 11 12
8 9 11 
7 8 10 
8 9 11 
10 11 13 
9 10 12 
9 10 12 
10 11 12 
11 11 10
13 20 16 
30 45 37 
31 46 51 
63 91 85 
87 120 99 
87 107 89 
62 81 59
88 121 87 
97 133 92 
94 119 89 
81 98 75 
66 83 58 
39 54 28 
32 41 28
14 15 18 
16 15 19 
16 17 19 
20 26 26 
26 36 31 
33 48 40 
37 52 44
33 44 38 
21 30 26 
31 41 29 
33 45 28 
36 52 37 
32 40 36 
22 23 27
25 26 30 
23 24 28 
32 33 38 
37 40 40 
29 32 25 
46 49 32 
42 49 27
37 43 29 
22 24 15 
26 27 19 
26 26 17 
38 38 25 
43 44 29 
28 31 19
27 31 19 
36 42 27 
43 46 34 
42 48 38 
21 27 28 
24 25 27 
24 24 26
24 24 25 
24 24 26 
24 23 25 
26 26 28 
30 29 30 
37 34 33 
36 32 32
38 31 32 
44 36 33 
48 43 37 
43 40 36 
36 38 34 
36 35 32 
39 35 33
37 33 29 
57 57 37 
73 77 42 
57 61 36 
49 54 34 
40 46 28 
32 40 26
36 48 30 
46 58 35 
42 52 39 
29 37 27 
23 29 25 
22 27 30 
24 33 32
20 30 29 
17 26 25 
23 33 32 
23 33 32 
21 30 29 
18 28 28 
16 26 27
17 28 28 
14 24 25 
15 24 25 
16 26 27 
19 32 32 
20 35 35 
22 36 36
17 30 30 
23 34 27 
19 28 20 
11 15 10 
11 16 14 
10 15 14 
9 14 12
10 13 13 
9 10 12 
10 11 13 
10 11 13 
10 11 13 
8 9 11 
8 9 11 
8 9 11
10 11 13 
10 12 14 
12 14 16 
11 11 11 
20 27 23 
32 43 40 
14 23 26
63 90 71 
96 127 93 
70 86 66 
43 52 45 
34 49 39 
73 91 73 
66 77 65
59 67 58 
54 63 51 
27 39 18 
32 44 30 
15 19 26 
15 16 22 
17 25 25
34 53 47 
36 60 48 
35 58 45 
33 56 42 
37 57 43 
32 48 36 
34 49 32
40 56 34 
57 74 52 
34 46 37 
13 18 21 
17 19 22 
22 25 26 
26 29 30
32 39 33 
38 45 33 
42 46 28 
47 54 33 
27 33 21 
17 17 14 
21 19 16
38 37 28 
40 41 27 
42 43 27 
33 33 21 
28 29 19 
45 49 30 
52 56 37
42 47 37 
28 33 37 
27 26 31 
24 24 27 
25 27 30 
28 29 32 
31 33 35
25 27 31 
29 30 35 
35 35 37 
35 32 34 
40 35 36 
37 34 29 
42 40 34
40 39 34 
35 36 33 
33 34 31 
34 33 32 
31 30 26 
42 43 30 
60 64 37
40 43 24 
40 44 28 
35 39 25 
31 36 24 
42 48 33 
47 54 36 
37 44 30
38 44 34 
24 32 28 
17 25 25 
24 32 29 
19 26 25 
16 22 22 
24 31 28
27 35 32 
24 36 30 
29 41 37 
19 27 31 
15 24 27 
15 23 26 
14 23 26
14 24 26 
19 29 31 
17 30 29 
13 24 25 
13 24 24 
21 31 26 
28 36 26
17 21 16 
9 12 11 
10 14 12 
12 20 17 
14 20 17 
15 19 18 
12 16 18
10 14 16 
9 15 14 
9 12 13 
8 10 11 
9 11 11 
11 12 11 
12 14 11 
10 12 11
12 16 16 
29 39 34 
30 40 36 
21 28 29 
53 62 56 
55 66 58 
31 40 38
26 33 35 
35 44 46 
43 54 49 
42 54 46 
41 52 41 
49 59 47 
27 36 17
41 48 37 
16 22 26 
16 18 26 
33 39 44 
26 41 40 
24 39 38 
30 42 41
30 41 39 
37 49 41 
46 58 43 
22 29 19 
22 29 19 
47 58 42 
47 61 46
26 36 34 
23 27 32 
27 32 37 
31 37 42 
28 35 38 
39 46 43 
54 55 51
43 47 32 
30 37 21 
22 23 18 
19 16 14 
27 24 17 
28 26 16 
30 28 16
24 24 18 
22 22 20 
25 28 16 
41 49 35 
53 59 50 
30 33 41 
36 34 48
41 43 54 
32 36 43 
35 38 45 
37 40 46 
28 31 37 
31 34 43 
34 36 45
32 31 39 
39 37 42 
35 36 34 
36 37 35 
36 36 35 
36 35 33 
38 37 36
44 42 43 
37 37 37 
52 52 38 
53 54 33 
25 26 15 
24 25 16 
26 27 19
26 28 18 
35 39 26 
32 37 25 
36 44 28 
46 58 39 
30 39 38 
28 36 42
26 36 39 
26 34 38 
20 27 33 
26 35 32 
44 53 46 
37 52 42 
40 53 46
28 36 37 
38 47 48 
27 34 36 
16 23 29 
22 30 35 
30 37 42 
18 29 33
14 25 32 
22 35 33 
31 44 33 
18 28 19 
13 20 15 
10 13 13 
10 14 14
11 18 17 
11 19 17 
10 18 15 
15 23 21 
10 19 17 
9 20 15 
13 20 17
10 13 13 
9 10 14 
9 10 14 
9 10 15 
12 13 16 
24 29 35 
44 54 55 
34 47 42
48 61 55 
45 55 51 
32 37 39 
22 25 29 
25 29 32 
31 34 37 
29 31 34
33 36 37 
36 39 36 
38 42 32 
55 69 54 
72 82 70 
52 63 59 
48 60 55
46 59 55 
48 65 63 
44 59 56 
65 77 68 
64 75 65 
63 77 67 
76 93 76
54 66 54 
39 49 39 
37 48 39 
64 78 63 
61 72 64 
63 71 71 
48 56 65
51 59 70 
49 58 70 
68 78 79 
56 60 65 
45 52 48 
46 59 49 
43 59 48
32 45 37 
37 46 41 
42 46 39 
42 44 36 
30 37 34 
26 35 34 
34 44 41
56 72 60 
74 87 73 
61 67 63 
62 70 74 
47 57 65 
45 52 56 
47 51 58
33 39 47 
24 31 34 
31 35 40 
38 40 45 
29 33 36 
35 40 41 
40 42 40
46 50 41 
49 52 45 
48 52 46 
45 49 46 
48 50 52 
48 53 43 
68 74 53
43 47 38 
29 33 32 
28 33 32 
24 28 31 
30 36 33 
44 53 42 
34 44 33
38 50 36 
57 71 51 
37 47 49 
33 42 56 
31 45 54 
30 44 51 
32 44 50
33 48 52 
45 58 55 
39 52 46 
38 50 44 
35 45 41 
49 59 54 
35 47 45
36 52 53 
45 63 64 
52 68 64 
37 51 50 
28 41 49 
26 40 42 
24 39 37
22 34 32 
18 26 27 
13 24 23 
8 18 16 
12 19 19 
9 16 13 
7 15 11 
5 12 8
7 16 13 
5 18 16 
13 28 24 
20 37 33 
16 33 32 
23 40 37 
20 38 34 
23 38 39
27 41 47 
29 45 46 
42 59 54 
39 56 48 
34 50 43 
36 46 43 
33 39 37
43 50 48 
39 45 41 
41 48 38 
57 64 50 
57 66 48 
51 64 45 
93 121 56
94 123 62 
100 129 67 
99 129 62 
93 123 60 
91 121 60 
93 121 65
98 126 69 
100 127 70 
97 125 75 
92 123 73 
91 118 66 
97 123 71
108 130 73 
109 132 74 
103 125 66 
106 128 67 
106 127 75 
108 126 80
109 133 83 
100 123 82 
49 62 54 
88 119 75 
84 123 71 
83 125 72
90 130 73 
98 134 74 
108 136 75 
113 134 71 
106 130 68 
100 126 69
104 130 80 
106 135 79 
116 142 75 
114 133 67 
98 122 52 
103 127 65
110 126 72 
101 116 74 
95 113 73 
104 123 75 
112 129 78 
124 140 85
114 135 77 
119 142 85 
123 143 82 
127 148 82 
118 139 74 
123 143 83
116 135 79 
118 136 84 
120 140 79 
123 142 82 
108 125 81 
107 125 84
99 117 73 
91 109 66 
103 122 75 
115 136 81 
110 132 79 
114 135 84
108 128 81 
99 121 82 
85 111 72 
85 122 73 
89 126 78 
93 129 82
90 125 75 
97 126 72 
104 129 62 
108 133 59 
102 128 54 
105 130 59
105 131 61 
107 136 67 
109 138 72 
113 141 70 
116 145 70 
103 131 62
96 123 58 
87 111 52 
94 118 57 
98 121 60 
97 126 60 
90 120 53 
94 120 54
89 117 52 
84 116 52 
74 105 43 
78 111 53 
70 112 55 
62 114 56 
54 113 59
52 108 59 
54 111 60 
51 110 55 
49 106 53 
56 111 63 
53 106 56 
61 112 60
60 110 59 
57 107 56 
67 113 59 
65 109 53 
67 111 56 
71 114 59 
74 114 58
77 119 59 
81 122 59 
82 120 55 
120 146 53 
124 151 62 
120 149 56
120 149 58 
122 149 60 
126 154 65 
131 158 63 
133 159 66 
127 153 65
126 154 69 
129 158 67 
122 152 56 
119 148 59 
127 154 69 
125 154 70
121 152 68 
112 140 55 
127 153 68 
143 163 83 
145 168 79 
123 146 80
59 75 58 
110 151 71 
103 148 69 
102 145 75 
112 152 77 
112 150 63
118 150 61 
135 159 69 
136 160 70 
128 154 67 
115 142 67 
107 137 64
115 144 61 
115 141 56 
117 144 53 
128 154 63 
135 157 71 
132 155 71
130 154 68 
131 156 62 
136 159 67 
134 155 73 
132 156 72 
132 157 74
136 160 75 
126 149 65 
129 152 67 
130 152 64 
131 153 69 
135 158 72
134 158 67 
126 150 63 
133 156 78 
139 162 83 
142 166 79 
144 168 79
136 161 78 
123 150 70 
129 155 76 
124 150 73 
119 146 71 
119 149 73
117 152 69 
111 152 67 
110 151 72 
110 151 73 
104 149 72 
109 152 75
115 154 71 
114 150 60 
121 156 64 
127 161 76 
123 157 69 
124 156 68
121 153 67 
121 154 67 
123 156 67 
121 154 64 
122 156 64 
126 158 66
120 155 66 
110 147 63 
113 150 66 
114 151 66 
113 151 66 
117 153 70
116 154 71 
117 156 72 
113 149 68 
113 153 71 
110 152 69 
106 149 70
102 145 71 
99 144 75 
88 137 66 
88 139 65 
85 137 64 
83 133 63
85 133 66 
82 131 61 
85 134 64 
83 132 66 
81 131 65 
78 128 62 
78 126 62
82 126 65 
83 127 66 
80 124 63 
82 125 63 
89 115 62 
96 122 73 
90 118 66
83 107 54 
83 104 53 
83 105 54 
91 112 59 
93 113 65 
88 110 66 
84 106 63
83 104 61 
84 105 62 
87 106 66 
90 106 66 
92 110 68 
89 110 66 
87 104 65
91 111 70 
96 114 74 
99 110 75 
82 102 78 
58 78 55 
136 161 82
133 162 80 
130 159 83 
132 159 81 
135 161 68 
140 162 69 
144 163 80
143 162 81 
137 160 80 
132 157 80 
131 159 79 
134 160 75 
139 161 80
136 158 74 
133 156 72 
131 154 74 
132 155 75 
128 151 70 
131 155 72
134 158 73 
131 155 75 
131 154 76 
138 160 80 
140 163 83 
141 164 85
140 162 82 
142 164 80 
145 166 86 
143 165 84 
141 165 79 
136 160 75
136 159 79 
140 163 82 
140 163 82 
140 162 85 
134 156 81 
136 160 82
134 159 77 
136 160 76 
138 161 77 
133 159 75 
127 155 71 
130 159 75
130 159 75 
127 157 67 
128 158 70 
123 154 71 
120 153 71 
121 154 69
125 158 72 
121 153 73 
119 152 68 
122 155 69 
123 156 71 
123 156 68
122 154 68 
124 157 70 
124 157 69 
120 154 64 
118 155 65 
112 152 64
114 151 63 
117 153 65 
118 154 66 
117 150 65 
116 150 66 
115 149 65
114 148 63 
113 149 59 
120 150 56 
121 149 58 
114 148 60 
114 147 62
122 153 67 
123 154 63 
120 153 63 
123 153 66 
123 152 64 
121 151 60
122 152 61 
119 149 61 
118 149 61 
116 147 58 
108 139 54 
105 136 55
106 137 56 
107 138 56 
105 136 53 
110 141 50 
108 139 54 
106 137 46
120 147 51 
124 149 53 
121 149 53 
124 151 57 
123 151 62 
114 142 58
118 144 61 
122 146 62 
118 144 59 
123 148 67 
113 138 60 
110 136 57
112 140 59 
112 142 68 
95 128 54 
91 125 53 
112 138 60 
86 124 58
77 118 53 
131 156 58 
129 152 51 
129 154 54 
132 156 59 
135 158 57
140 161 63 
135 157 67 
139 159 72 
139 160 75 
140 164 79 
136 162 77
137 162 72 
139 160 75 
138 160 72 
135 159 70 
134 160 74 
134 160 70
134 159 66 
131 156 64 
129 156 64 
129 158 62 
138 162 66 
140 161 72
135 160 68 
135 160 68 
136 162 67 
136 161 67 
134 157 67 
133 157 65
138 162 68 
142 166 73 
142 166 75 
134 158 67 
132 157 67 
135 159 75
134 158 72 
134 159 66 
136 163 66 
133 159 60 
133 156 61 
133 159 62
127 154 62 
130 157 65 
135 162 70 
132 160 65 
131 157 59 
128 155 56
132 161 58 
135 164 60 
128 157 55 
131 159 61 
132 162 65 
127 160 65
124 157 59 
126 159 60 
124 158 62 
120 154 57 
120 154 55 
127 159 59
125 159 57 
118 156 47 
121 156 45 
122 155 45 
120 154 43 
120 152 43
119 154 47 
121 155 50 
124 158 50 
120 156 47 
122 157 52 
121 155 55
117 154 49 
126 158 57 
127 157 56 
126 155 55 
126 157 57 
129 158 58
132 158 58 
133 159 56 
134 159 59 
133 157 55 
133 156 52 
136 160 56
136 158 52 
136 156 49 
141 162 53 
139 158 52 
137 153 51 
121 150 38
116 147 40 
124 150 41 
124 152 49 
122 152 51 
109 143 40 
113 143 45
122 148 53 
120 147 47 
128 152 58 
132 156 65 
122 154 49 
120 149 46
122 150 44 
125 151 49 
131 155 57 
136 160 63 
126 151 48 
122 146 48
129 153 53 
119 153 55 
103 145 54 
121 149 50 
114 139 41 
110 138 41
108 137 39 
119 144 39 
130 153 47 
124 151 48 
130 155 53 
130 155 54
123 147 50 
120 143 55 
130 155 58 
133 158 58 
132 159 59 
127 153 52
128 153 52 
128 156 47 
134 160 51 
131 156 49 
120 148 44 
124 153 48
133 154 48 
128 149 51 
128 153 57 
122 146 51 
125 152 46 
124 150 51
128 152 55 
131 153 54 
135 157 50 
137 159 50 
134 156 44 
125 150 40
125 155 42 
121 151 43 
125 154 48 
129 154 51 
124 150 49 
121 149 45
121 150 43 
121 150 38 
116 145 37 
124 152 46 
125 153 50 
119 146 48
121 145 49 
116 141 41 
119 147 44 
126 155 41 
126 154 38 
121 147 46
123 149 56 
122 151 54 
116 147 42 
118 149 46 
110 144 38 
111 145 38
107 141 34 
107 140 35 
113 147 39 
118 153 39 
119 154 36 
116 150 34
122 156 43 
120 153 43 
113 150 36 
121 153 45 
111 148 41 
112 149 48
113 151 45 
112 151 44 
109 146 42 
112 144 46 
110 143 45 
119 150 53
117 148 49 
123 154 52 
124 152 51 
123 150 48 
124 151 54 
126 153 57
126 153 52 
124 150 53 
128 152 52 
133 154 56 
134 157 49 
131 153 51
127 147 56 
108 137 32 
110 146 35 
109 142 32 
99 132 31 
115 147 44
99 132 27 
111 139 41 
128 153 57 
123 150 50 
136 159 63 
138 159 57
134 156 41 
142 164 56 
140 162 54 
141 161 50 
147 165 58 
148 168 53
152 172 58 
147 167 55 
140 161 46 
134 157 48 
125 151 51 
142 164 59
142 164 54 
143 167 54 
133 159 54 
143 165 59 
145 165 58 
139 164 64
131 156 55 
133 158 55 
137 161 60 
134 158 58 
136 161 55 
132 157 51
128 152 49 
130 152 47 
130 151 49 
131 155 47 
134 156 56 
130 152 52
128 153 43 
134 159 50 
141 162 55 
132 156 48 
130 154 53 
131 155 54
134 160 51 
133 158 55 
133 154 54 
135 153 52 
137 159 44 
138 162 42
135 158 40 
134 158 42 
135 158 51 
130 154 54 
129 153 54 
138 160 62
131 153 55 
131 154 56 
131 154 49 
132 156 49 
134 158 50 
137 158 45
136 157 46 
137 157 53 
127 147 49 
127 147 49 
129 151 46 
128 153 44
132 159 48 
132 158 50 
128 153 54 
126 151 60 
127 154 54 
129 157 54
126 155 50 
126 156 48 
120 149 49 
122 151 47 
128 160 42 
124 156 41
125 158 39 
121 154 36 
120 152 41 
118 148 47 
119 150 52 
123 150 51
122 155 49 
118 152 49 
117 151 45 
118 152 46 
124 156 49 
123 151 51
127 156 54 
125 150 48 
125 149 51 
131 156 55 
127 153 53 
127 152 57
127 152 60 
127 154 60 
129 156 53 
130 155 56 
129 154 56 
132 156 55
132 156 52 
128 152 53 
123 147 50 
110 139 32 
105 138 29 
118 145 38
120 148 44 
128 154 47 
126 148 44 
128 151 47 
123 149 41 
127 152 46
127 152 53 
128 153 52 
135 155 46 
128 149 48 
122 146 43 
125 148 41
134 157 44 
131 158 45 
128 154 55 
128 156 43 
132 160 38 
131 152 41
135 156 45 
138 162 41 
137 160 35 
130 154 30 
127 155 43 
128 153 42
133 155 43 
135 161 58 
131 157 48 
125 152 44 
129 154 50 
134 158 48
133 157 44 
135 158 50 
133 156 50 
140 162 51 
132 154 46 
133 157 53
140 161 61 
140 162 55 
138 161 48 
141 159 59 
140 160 62 
142 167 59
145 168 65 
138 160 59 
142 166 59 
134 163 56 
137 163 59 
141 164 59
137 160 46 
142 166 45 
142 166 50 
149 170 55 
144 163 58 
143 163 62
140 162 57 
130 152 44 
140 160 51 
141 160 56 
139 160 56 
139 159 59
130 149 50 
133 156 42 
135 156 48 
136 156 53 
125 150 51 
136 161 58
133 157 46 
111 137 36 
106 133 41 
118 145 49 
113 140 48 
109 136 50
113 141 46 
119 147 48 
120 143 51 
118 141 49 
118 142 49 
119 143 46
127 151 53 
130 155 50 
125 154 43 
124 153 46 
120 148 43 
117 142 47
119 145 56 
120 143 56 
122 149 51 
125 154 51 
124 153 49 
119 147 44
118 144 45 
125 148 54 
122 145 53 
120 144 56 
116 139 57 
120 144 54
122 145 55 
122 145 54 
119 141 56 
124 148 62 
119 144 53 
119 142 56
122 144 53 
128 149 55 
119 138 53 
113 132 51 
120 145 48 
118 141 32
117 140 36 
119 138 41 
120 144 35 
123 149 34 
123 148 38 
127 149 42
122 142 42 
128 147 43 
119 138 45 
119 143 60 
125 144 43 
124 144 39
126 152 38 
127 151 44 
127 152 37 
122 147 37 
112 137 29 
113 138 29
128 153 38 
127 150 41 
135 154 42 
132 155 39 
132 159 31 
121 148 30
124 151 32 
136 160 38 
136 157 36 
131 154 36 
127 150 41 
126 153 36
132 154 34 
134 155 39 
134 156 39 
129 151 40 
122 146 37 
130 156 36
124 153 40 
130 156 50 
127 147 41 
136 154 51 
137 162 47 
127 152 42
125 151 37 
123 150 29 
123 151 33 
125 151 42 
125 152 38 
118 145 46
118 145 50 
108 136 37 
123 147 48 
135 157 49 
136 161 51 
129 154 46
124 148 47 
121 146 46 
121 147 40 
116 144 35 
112 142 30 
116 143 37
122 148 52 
128 154 50 
118 142 40 
109 134 32 
111 139 37 
116 141 42
113 136 46 
114 139 49 
112 138 42 
110 139 36 
111 137 49 
104 129 50
98 126 38 
115 144 44 
114 142 44 
118 145 57 
119 141 54 
120 144 53
124 149 51 
125 149 45 
121 145 45 
130 155 57 
126 152 56 
124 147 56
126 150 61 
122 148 55 
116 142 46 
111 137 51 
107 130 51 
124 145 56
117 141 49 
121 145 48 
122 142 47 
119 141 51 
118 142 56 
129 157 61
124 149 66 
130 151 62 
127 152 57 
126 152 48 
127 150 47 
126 145 46
118 135 47 
126 143 54 
114 130 47 
109 130 41 
98 119 33 
97 113 42
98 121 42 
123 146 21 
127 147 31 
121 142 30 
120 143 31 
119 141 41
124 146 41 
122 149 34 
122 149 48 
124 148 48 
123 147 50 
119 147 56
122 139 46 
126 140 41 
145 160 44 
148 164 40 
143 157 43 
134 145 45
136 150 41 
138 151 43 
148 161 47 
142 157 48 
134 151 47 
123 145 47
127 150 32 
132 152 42 
137 151 51 
144 155 49 
134 148 43 
130 145 38
125 141 44 
118 139 41 
116 132 46 
120 139 39 
123 145 38 
119 140 39
118 140 45 
125 145 45 
124 145 41 
129 147 45 
130 141 49 
123 140 52
130 155 50 
134 156 51 
134 157 53 
130 152 44 
128 152 36 
131 154 42
130 153 43 
132 153 51 
127 150 48 
116 141 43 
119 142 51 
127 147 46
132 149 56 
130 147 47 
129 150 46 
124 150 37 
125 155 35 
115 144 31
118 144 36 
124 148 41 
120 147 45 
124 151 46 
123 150 38 
118 144 40
112 140 39 
104 130 33 
114 137 46 
115 141 42 
118 144 47 
120 147 47
124 149 43 
129 153 54 
119 146 41 
120 152 33 
119 150 42 
121 148 52
123 151 54 
120 150 41 
115 146 32 
119 153 32 
111 146 28 
111 147 35
107 139 36 
99 125 37 
111 136 60 
112 144 48 
102 134 35 
106 140 46
116 147 54 
126 154 52 
120 149 50 
116 141 53 
124 150 47 
115 142 36
111 139 32 
98 127 37 
86 116 33 
98 127 34 
92 124 30 
105 137 34
109 138 33 
119 141 43 
114 132 42 
121 140 46 
123 138 53 
129 147 46
118 138 40 
120 134 50 
123 143 42 
123 148 24 
134 154 30 
130 153 35
131 155 40 
124 146 33 
127 150 34 
113 145 33 
99 133 48 
101 134 42
102 135 46 
101 135 52 
129 151 45 
139 156 47 
144 160 42 
139 155 36
137 153 34 
135 150 36 
130 146 29 
129 142 38 
129 147 31 
143 158 40
145 158 53 
126 141 46 
139 157 38 
136 155 32 
135 149 45 
138 152 44
135 151 44 
125 137 36 
124 140 36 
110 135 30 
108 132 33 
125 146 33
122 140 36 
117 132 40 
127 141 48 
126 136 52 
127 144 40 
120 141 29
117 136 38 
94 124 36 
108 141 36 
125 146 37 
114 135 33 
122 143 40
126 150 41 
125 149 33 
130 153 41 
125 149 44 
129 151 50 
131 149 60
121 147 50 
119 147 33 
113 139 43 
117 144 40 
127 149 43 
138 161 31
143 164 30 
141 164 38 
142 165 44 
137 159 48 
111 138 39 
105 131 32
122 148 38 
125 154 35 
115 145 29 
116 143 39 
128 155 41 
122 152 30
119 148 32 
111 144 39 
114 148 30 
114 146 37 
108 138 38 
109 138 35
105 136 40 
98 122 41 
93 123 34 
99 132 29 
106 141 28 
111 146 31
106 142 26 
100 137 24 
101 139 22 
104 138 29 
95 126 37 
93 133 29
90 129 33 
105 137 42 
106 138 42 
107 142 38 
115 149 37 
116 147 51
110 143 41 
120 149 44 
123 148 44 
116 137 39 
108 134 34 
106 133 29
91 119 26 
91 117 32 
111 136 35 
112 133 39 
106 126 34 
112 134 33
120 140 38 
124 146 39 
117 140 41 
119 136 46 
126 147 35
